!!!!SEGMENT: pl-stab--6a--001-003_dankowski-adalbert--vespera-de-confes-ex-c-confitebor.krn
!!!cenid: 18xx:3463
!!!COM: Dankowski, Adalbert
!!!COM-rismID: pe30000793
!!!CDT: ~1760-~1836
!!!CNT: Polish
!!!OPR: Vespera de Confes ex C
!!!OTL: Confitebor
!!!OMV: 003
!!!PDT:
!!!AGN: Sacred; Vespers
!!!SMS-siglum: PL-STAb
!!!SMS-shelfmark: 6a
!!!SMS-shelfwork: 001-003 M
!!!SMS-variant:
!!!SMS-altvar:
!!!NIFC-rismSourceID: 301050559
!!!NIFC-rismChildID: 301050559
!!!NIFC-islandoraID: pl-stab:1600
!!!URL-pdf-islandora: https://repozytorium.nifc.pl/islandora/object/pl-stab%3A1600/datastream/PDF/view
!!!URL-scan: https://polish.musicsources.pl/pl/lokalizacje/galeria/rekopisy/4540 @EN{Scan on Polish Music Sources Website} @PL{Skany w portalu Dziedzictwo Muzyki Polskiej w otwartym dostępie}
!!!ONB-nifc: UWAGA: części Vesperae: 1. Domine ad adjuvandum, 2. Dixit Dominus, 3. Confitebor, 4. Beatus vir, 5. Laudate pueri, 6. Laudate Dominus, 7. Magnificat
!!!AIN: 1 alto 1 bass 2 cor 1 organ 1 soprn 1 tenor 2 violn
!!!key: G
**kern	**fba	**dynam	**kern	**dynam	**kern	**dynam	**kern	**text	**text	**kern	**text	**text	**kern	**text	**kern	**text	**text	**kern	**kern
*part9	*part9	*part9	*part8	*part8	*part7	*part7	*part6	*part6	*part6	*part5	*part5	*part5	*part4	*part4	*part3	*part3	*part3	*part2	*part1
*staff9	*	*	*staff8	*	*staff7	*	*staff6	*staff6	*staff6	*staff5	*staff5	*staff5	*staff4	*staff4	*staff3	*staff3	*staff3	*staff2	*staff1
*	*	*	*group3	*	*group3	*	*group2	*	*	*group2	*	*	*group2	*	*group2	*	*	*group1	*group1
*	*	*	*	*	*	*	*	*	*color:grey	*	*	*color:grey	*	*	*	*	*color:grey	*	*
*I"Organo	*	*	*I"Violino Secundo	*	*I"Violino Primo	*	*I"Baſso	*	*	*I"Tenore	*	*	*I"Alto	*	*I"Canto	*	*	*I"Clarino Secundo in C	*I"Clarino Primo in C
*	*	*	*mI"Violino II	*	*mI"Violino I	*	*mI"Basso	*	*	*	*	*	*	*	*mI"Soprano	*	*	*mI"Clarino II in C	*mI"Clarino I in C
*I'org	*	*	*I'vl 2	*	*I'vl 1	*	*I'B	*	*	*I'T	*	*	*I'A	*	*I'S	*	*	*I'clno 2 in C	*I'clno 1 in C
*	*	*	*mI'vl II	*	*mI'vl I	*	*	*	*	*	*	*	*	*	*	*	*	*	*
*Iorgan	*	*	*Ivioln	*	*Ivioln	*	*Ibass	*	*	*Itenor	*	*	*Ialto	*	*Isoprn	*	*	*Icor	*Icor
*ICklav	*	*	*ICstr	*	*ICstr	*	*ICvox	*	*	*ICvox	*	*	*ICvox	*	*ICvox	*	*	*ICbras	*ICbras
*IGcont	*	*	*IGacmp	*	*IGacmp	*	*IGcoro	*	*	*IGcoro	*	*	*IGcoro	*	*IGcoro	*	*	*	*
*clefF4	*	*	*clefG2	*	*clefG2	*	*clefF4	*	*	*clefC4	*	*	*clefC3	*	*clefC1	*	*	*	*
*	*	*	*	*	*	*	*	*	*	*mclefGv2	*	*	*mclefG2	*	*mclefG2	*	*	*	*
*k[f#]	*	*	*k[f#]	*	*k[f#]	*	*k[f#]	*	*	*k[f#]	*	*	*k[f#]	*	*k[f#]	*	*	*	*
*G:	*	*	*G:	*	*G:	*	*G:	*	*	*G:	*	*	*G:	*	*G:	*	*	*	*
*M3/4	*	*	*M3/4	*	*M3/4	*	*M3/4	*	*	*M3/4	*	*	*M3/4	*	*M3/4	*	*	*	*
=1	=1	=1	=1	=1	=1	=1	=1	=1	=1	=1	=1	=1	=1	=1	=1	=1	=1	=1	=1
*	*	*	*	*	*2\right	*	*	*	*	*	*	*	*	*	*2\right	*	*	*	*
!LO:TX:a:i:t=Solo	!	!	!	!	!	!	!	!	!	!	!	!	!	!	!	!	!	!	!
!LO:MO:mod=!LO&colon;TX&colon;a&colon;B&colon;t=Allegro Moderato	!	!	!LO:MO:mod=!LO&colon;TX&colon;a&colon;B&colon;t=Allegro Moderato	!	!LO:MO:mod=!LO&colon;TX&colon;a&colon;B&colon;t=Allegro Moderato	!	!LO:MO:mod=!LO&colon;TX&colon;a&colon;B&colon;t=Allegro Moderato	!	!	!LO:MO:mod=!LO&colon;TX&colon;a&colon;B&colon;t=Allegro Moderato	!	!	!LO:MO:mod=!LO&colon;TX&colon;a&colon;B&colon;t=Allegro Moderato	!	!LO:MO:mod=!LO&colon;TX&colon;a&colon;B&colon;t=Allegro Moderato	!	!	!	!
!LO:TX:a:B:t=Allo Moderato	!	!	!LO:TX:a:B:t=Allo Moderato	!LO:DY:a	!LO:TX:a:B:t=Allo Moderato	!LO:DY:a	!LO:TX:a:B:t=Allo Moderato	!	!	!LO:TX:a:B:t=Allo. Mod&colon;	!	!	!LO:TX:a:B:t=Allo Moderato	!	!LO:TX:a:B:t=Allo Moderato	!	!	!LO:TX:a:t=Confitebor Tacet	!LO:TX:a:t=Confitebor Tacet
4G\	.	p	8B/L	p	2dd\	p	0.r	.	.	0.r	.	.	0.r	.	2dd\	Con-	Cre-	2.ryy	2.ryy
.	.	.	8d/	.	.	.	.	.	.	.	.	.	.	.	.	.	.	.	.
4G\	.	.	8B/	.	.	.	.	.	.	.	.	.	.	.	.	.	.	.	.
.	.	.	8d/	.	.	.	.	.	.	.	.	.	.	.	.	.	.	.	.
4G\	.	.	8B/	.	8b/L	.	.	.	.	.	.	.	.	.	8b\L	-fi-	-di-	.	.
.	.	.	8d/J	.	8g/J	.	.	.	.	.	.	.	.	.	8g\J	.	-di	.	.
=2	=2	=2	=2	=2	=2	=2	=2	=2	=2	=2	=2	=2	=2	=2	=2	=2	=2	=2	=2
4A\	6_ 5_	.	8c/L	.	4.f#/	.	.	.	.	.	.	.	.	.	4.f#/	-te-	pro	2.ryy	2.ryy
.	.	.	8d/	.	.	.	.	.	.	.	.	.	.	.	.	.	.	.	.
4A\	.	.	8c/	.	.	.	.	.	.	.	.	.	.	.	.	.	.	.	.
.	.	.	8d/	.	(16e/LL	.	.	.	.	.	.	.	.	.	(16e/LL	.	.	.	.
.	.	.	.	.	16f#/JJ)	.	.	.	.	.	.	.	.	.	16f#/JJ)	.	.	.	.
4G\	3	.	8c/	.	4g/	.	.	.	.	.	.	.	.	.	4g/	-bor	quod	.	.
.	.	.	8d/J	.	.	.	.	.	.	.	.	.	.	.	.	.	.	.	.
=3	=3	=3	=3	=3	=3	=3	=3	=3	=3	=3	=3	=3	=3	=3	=3	=3	=3	=3	=3
*	*	*	*tremolo	*	*	*	*	*	*	*	*	*	*	*	*	*	*	*	*
4F#\	6_ 5_	.	8A/L	.	4a/	.	.	.	.	.	.	.	.	.	(4a\	ti-	.	2.ryy	2.ryy
.	.	.	8d/	.	.	.	.	.	.	.	.	.	.	.	.	.	.	.	.
4F#\	.	.	8A/	.	4dd\	.	.	.	.	.	.	.	.	.	4dd\)	.	.	.	.
.	.	.	8d/	.	.	.	.	.	.	.	.	.	.	.	.	.	.	.	.
4F#\	.	.	8A/	.	4cc\	.	.	.	.	.	.	.	.	.	4cc\|	-bi	lo-	.	.
.	.	.	8d/J	.	.	.	.	.	.	.	.	.	.	.	.	.	.	.	.
*	*	*	*Xtremolo	*	*	*	*	*	*	*	*	*	*	*	*	*	*	*	*
=4	=4	=4	=4	=4	=4	=4	=4	=4	=4	=4	=4	=4	=4	=4	=4	=4	=4	=4	=4
8.G\L	x	.	8B/L	.	16b\LL	.	.	.	.	.	.	.	.	.	16b\LL	Do-	-cu-	2.ryy	2.ryy
.	.	.	.	.	16a\	.	.	.	.	.	.	.	.	.	16a\JJ	.	.	.	.
.	.	.	8d/	.	16b\	.	.	.	.	.	.	.	.	.	16b\LL	-mi-	-tus	.	.
16F#\Jk	.	.	.	.	16cc\JJ	.	.	.	.	.	.	.	.	.	16cc\JJ	.	.	.	.
8G\L	.	.	8B/	.	4dd\	.	.	.	.	.	.	.	.	.	4dd\	-ne	sum	.	.
8A\	.	.	8c/	.	.	.	.	.	.	.	.	.	.	.	.	.	.	.	.
8B\	.	.	8d/	.	4r	.	.	.	.	.	.	.	.	.	4r	.	.	.	.
8A\J	.	.	8c/J	.	.	.	.	.	.	.	.	.	.	.	.	.	.	.	.
=5	=5	=5	=5	=5	=5	=5	=5	=5	=5	=5	=5	=5	=5	=5	=5	=5	=5	=5	=5
4G\	.	.	8B/L	.	2dd\	.	0.r	.	.	0.r	.	.	0.r	.	4dd\	in	e-	2.ryy	2.ryy
.	.	.	8d/	.	.	.	.	.	.	.	.	.	.	.	.	.	.	.	.
4G\	.	.	8B/	.	.	.	.	.	.	.	.	.	.	.	4dd\	to-	-go	.	.
.	.	.	8d/	.	.	.	.	.	.	.	.	.	.	.	.	.	.	.	.
4G\	.	.	8B/	.	8b/L	.	.	.	.	.	.	.	.	.	8b\L	-to	au-	.	.
.	.	.	8d/J	.	8g/J	.	.	.	.	.	.	.	.	.	8g\J	.	-tem	.	.
!LO:LB:g=original	!	!	!	!	!LO:LB:g=original	!	!	!	!	!	!	!	!	!	!LO:LB:g=original	!	!	!	!
=6	=6	=6	=6	=6	=6	=6	=6	=6	=6	=6	=6	=6	=6	=6	=6	=6	=6	=6	=6
4A\	6_ 5_	.	8c/L	.	4.f#/	.	.	.	.	.	.	.	.	.	4.f#/	Cor-	hu-	2.ryy	2.ryy
.	.	.	8d/	.	.	.	.	.	.	.	.	.	.	.	.	.	.	.	.
4A\	.	.	8c/	.	.	.	.	.	.	.	.	.	.	.	.	.	.	.	.
.	.	.	8d/	.	(16e/LL	.	.	.	.	.	.	.	.	.	16e/LL	.	-mi-	.	.
.	.	.	.	.	16f#/JJ)	.	.	.	.	.	.	.	.	.	16f#/JJ	.	.	.	.
4G\	3	.	8B/	.	4g/	.	.	.	.	.	.	.	.	.	4g/	-de	-li-	.	.
.	.	.	8d/J	.	.	.	.	.	.	.	.	.	.	.	.	.	.	.	.
!	!	!	!LO:LB:g=original	!	!	!	!	!	!	!	!	!	!	!	!	!	!	!	!
=7	=7	=7	=7	=7	=7	=7	=7	=7	=7	=7	=7	=7	=7	=7	=7	=7	=7	=7	=7
.	.	.	.	.	16qqb/	.	.	.	.	.	.	.	.	.	16qqb/	.	.	.	.
4F#\	6_ 5_	.	8c/L	.	8a/L	.	.	.	.	.	.	.	.	.	8a\	to-	-a-	2.ryy	2.ryy
.	.	.	8d/	.	16g/L	.	.	.	.	.	.	.	.	.	16g\LL	-to	-tus	.	.
.	.	.	.	.	16a/JJ	.	.	.	.	.	.	.	.	.	16a\JJ	.	.	.	.
4F#\	.	.	8A/	.	4cc\	.	.	.	.	.	.	.	.	.	4cc\	Cor-	sum	.	.
.	.	.	8d/	.	.	.	.	.	.	.	.	.	.	.	.	.	.	.	.
4G\	x	.	8B/	.	4b\	.	.	.	.	.	.	.	.	.	4b\	-de	.	.	.
.	.	.	8d/J	.	.	.	.	.	.	.	.	.	.	.	.	.	.	.	.
=8	=8	=8	=8	=8	=8	=8	=8	=8	=8	=8	=8	=8	=8	=8	=8	=8	=8	=8	=8
8d\L	4	.	8g/L	.	8b/L	.	.	.	.	.	.	.	.	.	4b\	me-	ni-	2.ryy	2.ryy
8c#X\J	.	.	16f#/L	.	16a/L	.	.	.	.	.	.	.	.	.	.	.	.	.	.
.	.	.	16g/JJ	.	16b/JJ	.	.	.	.	.	.	.	.	.	.	.	.	.	.
8d\L	.	.	4f#/	.	4a/	.	.	.	.	.	.	.	.	.	4a\	-o	-mis	.	.
8D\	.	.	.	.	.	.	.	.	.	.	.	.	.	.	.	.	.	.	.
8F#\	.	.	4r	.	4r	.	.	.	.	.	.	.	.	.	4r	.	.	.	.
8A\J	.	.	.	.	.	.	.	.	.	.	.	.	.	.	.	.	.	.	.
=9	=9	=9	=9	=9	=9	=9	=9	=9	=9	=9	=9	=9	=9	=9	=9	=9	=9	=9	=9
!	!	!	!	!	!	!	!	!	!	!	!	!	!LO:TX:a:i:t=Solo	!	!	!LO:MO:mod=In	!	!	!
8D\L	.	.	8f#/L	.	8a\L	.	0.r	.	.	0.r	.	.	4f#\	In	8a\L	in	E-	2.ryy	2.ryy
8D\	.	.	8e/J	.	16b\L	.	.	.	.	.	.	.	.	.	16b\L	.	.	.	.
.	.	.	.	.	16cc\JJ	.	.	.	.	.	.	.	.	.	16cc\JJ	.	.	.	.
!	!	!	!	!	!	!	!	!	!	!	!	!	!	!	!	!LO:MO:mod=con-	!	!	!
8D\	.	.	4.f#/	.	4.dd\	.	.	.	.	.	.	.	4.f#\	con-	(4.dd\	Con-	.	.	.
8D\	.	.	.	.	.	.	.	.	.	.	.	.	.	.	.	.	.	.	.
8D\	6_ 5_	.	.	.	.	.	.	.	.	.	.	.	.	.	.	.	.	.	.
!	!	!	!	!	!	!	!	!	!	!	!	!	!	!LO:MO:null:mod=-si-	!	!	!	!	!
8D\J	.	.	8a/	.	8cc\	.	.	.	.	.	.	.	8a\	.	8cc\)	-ſi-	-go	.	.
=10	=10	=10	=10	=10	=10	=10	=10	=10	=10	=10	=10	=10	=10	=10	=10	=10	=10	=10	=10
*2\right	*	*	*	*	*	*	*	*	*	*	*	*	*	*	*	*	*	*	*
*tremolo	*	*	*	*	*	*	*	*	*	*	*	*	*	*	*	*	*	*	*
!	!	!	!	!	!	!	!	!	!	!	!	!	!	!LO:MO:mod=-li-	!	!	!	!	!
8G\L	3	.	8a/L	.	8cc\L	.	.	.	.	.	.	.	8a\	-si-	8cc\	-li-	di-	2.ryy	2.ryy
!	!	!	!	!	!	!	!	!	!	!	!	!	!	!LO:MO:mod=-o-	!	!	!	!	!
8G\	.	.	8g/J	.	8b\J	.	.	.	.	.	.	.	8g\	-li-	8b\	-o	-xi	.	.
!	!	!	!	!	!	!	!	!	!	!	!	!	!	!LO:MO:mod=Jus-	!	!	!	!	!
8G\	.	.	4.b/	.	4.dd\	.	.	.	.	.	.	.	4.b\	-o	4.dd\	Jus-	in	.	.
8G\	.	.	.	.	.	.	.	.	.	.	.	.	.	.	.	.	.	.	.
8G\	.	.	.	.	.	.	.	.	.	.	.	.	.	.	.	.	.	.	.
!	!	!	!	!	!	!	!	!	!	!	!	!	!	!LO:MO:mod=.	!	!	!	!	!
8G\J	.	.	16a/LL	.	16cc\LL	.	.	.	.	.	.	.	16a\LL	Jus-	16cc\LL	.	ex-	.	.
.	.	.	16g/JJ	.	16b\JJ	.	.	.	.	.	.	.	16g\JJ	.	16b\JJ	.	.	.	.
*Xtremolo	*	*	*	*	*	*	*	*	*	*	*	*	*	*	*	*	*	*	*
=11	=11	=11	=11	=11	=11	=11	=11	=11	=11	=11	=11	=11	=11	=11	=11	=11	=11	=11	=11
8D\L	.	.	8g/L	.	8b/L	.	.	.	.	.	.	.	(8g\L	-to-	8b\L	-to-	-ceſ-	2.ryy	2.ryy
8D\	.	.	8f#/J	.	8a/J	.	.	.	.	.	.	.	8f#\J)	.	8a\J	.	.	.	.
8D\	.	.	4f#/	.	4a/	.	.	.	.	.	.	.	4f#\|	-rum	4a\	-rum	si	.	.
8D\	.	.	.	.	.	.	.	.	.	.	.	.	.	.	.	.	.	.	.
!	!	!	!	!	!	!	!	!	!	!	!	!	!	!	!LO:LB:g=original	!	!	!	!
8F#\	6_ 5_	.	4a/	.	8dd\L	.	.	.	.	.	.	.	4a\|	et	8dd\L	et	me-	.	.
8F#\J	.	.	.	.	8cc\J	.	.	.	.	.	.	.	.	.	8cc\J	.	-o	.	.
=12	=12	=12	=12	=12	=12	=12	=12	=12	=12	=12	=12	=12	=12	=12	=12	=12	=12	=12	=12
*tremolo	*	*	*	*	*	*	*	*	*	*	*	*	*	*	*	*	*	*	*
!	!	!	!	!	!	!	!	!	!	!	!	!	!	!LO:MO:mod=Con-	!	!	!	!	!
8G\L	x	.	8g/L	.	8b\L	.	.	.	.	.	.	.	8g\L|	con-	8b\L	Con-	o-	2.ryy	2.ryy
8G\	.	.	8f#/	.	8a\	.	.	.	.	.	.	.	8f#\|	.	8a\	.	.	.	.
8G\	.	.	8g/	.	8b\	.	.	.	.	.	.	.	8g\|	.	8b\	.	.	.	.
8G\	.	.	8a/J	.	8cc\J	.	.	.	.	.	.	.	8a\J|	.	8cc\J	.	.	.	.
!	!	!	!	!	!LO:LB:g=original	!	!	!	!	!	!	!	!	!	!	!	!	!	!
8G\	.	.	4b/	.	16dd\LL	.	.	.	.	.	.	.	8b\|	.	16dd\LL	.	.	.	.
.	.	.	.	.	16ee\	.	.	.	.	.	.	.	.	.	16ee\JJ	.	.	.	.
8G\J	.	.	.	.	16ff#\	.	.	.	.	.	.	.	8b\|	-gre-	16ff#\LL	-gre-	-mnis	.	.
.	.	.	.	.	16gg\JJ	.	.	.	.	.	.	.	.	.	16gg\JJ	.	.	.	.
*Xtremolo	*	*	*	*	*	*	*	*	*	*	*	*	*	*	*	*	*	*	*
!LO:LB:g=original	!	!	!	!	!	!	!	!	!	!	!	!	!LO:LB:g=original	!	!	!	!	!	!
=13	=13	=13	=13	=13	=13	=13	=13	=13	=13	=13	=13	=13	=13	=13	=13	=13	=13	=13	=13
.	.	.	.	.	.	.	.	.	.	.	.	.	8qqdd/	.	.	.	.	.	.
!LO:TX:t=P:problem=mixed beam	!	!	!	!	!	!	!	!	!	!	!	!	!	!	!	!	!	!	!
8c\L	6	.	8cc/L	.	8ee\L	.	1.r	.	.	1.r	.	.	8cc\	-ga-	8ee\	-ga-	ho-	2.ryy	2.ryy
8c\	.	.	16b/L	.	16dd\L	.	.	.	.	.	.	.	(16b\LL	-ti-	16dd\LL	-ti-	-mo	.	.
.	.	.	16a/JJ	.	16cc\JJ	.	.	.	.	.	.	.	16a\JJ)	.	16cc\JJ	.	.	.	.
8d\	4	.	4g/	.	4b\	.	.	.	.	.	.	.	4g\	-o-	4b\	-o-	men-	.	.
8d\	.	.	.	.	.	.	.	.	.	.	.	.	.	.	.	.	.	.	.
8D/	3	.	4f#/	.	4a\	.	.	.	.	.	.	.	4f#\	.	4a\	.	.	.	.
8D/J	.	.	.	.	.	.	.	.	.	.	.	.	.	.	.	.	.	.	.
=14	=14	=14	=14	=14	=14	=14	=14	=14	=14	=14	=14	=14	=14	=14	=14	=14	=14	=14	=14
4G\	.	.	16g/LL	.	16b\LL	.	.	.	.	.	.	.	4g\	-ne	4b\	-ne	-dax	2.ryy	2.ryy
!	!	!	!	!	!	!LO:HP:a:t=Cres	!	!	!	!	!	!	!	!	!	!	!	!	!
.	.	.	16a/	.	16cc\	<	.	.	.	.	.	.	.	.	.	.	.	.	.
.	.	.	16g/	.	16b\	.	.	.	.	.	.	.	.	.	.	.	.	.	.
.	.	.	16f#/JJ	.	16a\JJ	.	.	.	.	.	.	.	.	.	.	.	.	.	.
!	!	!	!LO:LB:g=original	!LO:HP:a:t=Cres	!	!	!	!	!	!	!	!	!	!	!	!	!	!	!
4r	.	.	8g/L	<	8b\L	.	.	.	.	.	.	.	4r	.	4r	.	.	.	.
.	.	.	8b/	.	8dd\|	.	.	.	.	.	.	.	.	.	.	.	.	.	.
4r	.	.	8cc/	.	8ee\|	.	.	.	.	.	.	.	4r	.	4r	.	.	.	.
.	.	.	8a/J	.	8ff#\J|	.	.	.	.	.	.	.	.	.	.	.	.	.	.
=15	=15	=15	=15	=15	=15	=15	=15	=15	=15	=15	=15	=15	=15	=15	=15	=15	=15	=15	=15
*tremolo	*	*	*	*	*	*	*	*	*	*	*	*	*	*	*	*	*	*	*
!LO:TX:a:i:t=Tutti	!	!	!	!LO:DY:a	!	!	!	!	!	!	!	!	!	!	!	!	!	!	!
8G\L	.	.	16B/LL	f	4.gg\	f	4G\	Ma-	.	4d\	Ma-	.	4g\	Ma-	4b\	Ma-	Quid	2.ryy	2.ryy
.	.	.	16d/	.	.	.	.	.	.	.	.	.	.	.	.	.	.	.	.
8G\	.	.	16B/	.	.	.	.	.	.	.	.	.	.	.	.	.	.	.	.
.	.	.	16d/JJ	.	.	.	.	.	.	.	.	.	.	.	.	.	.	.	.
8G\	.	.	16B/LL	.	.	.	8G\	-gna	.	8d\	-gna	.	8g\	-gna	8b\	-gna	re-	.	.
.	.	.	16d/	.	.	.	.	.	.	.	.	.	.	.	.	.	.	.	.
8G\	.	.	16B/	.	16b\LL	.	8G\	o-	.	8d\	o-	.	8g\	o-	8b\	o-	-tri-	.	.
.	.	.	16d/JJ	.	16cc\JJ	.	.	.	.	.	.	.	.	.	.	.	.	.	.
8G\	.	.	16B/LL	.	8b\L	.	8G\	-pe-	.	8d\	-pe-	.	8g\	-per-	8b\	-pe-	-bu-	.	.
.	.	.	16d/	.	.	.	.	.	.	.	.	.	.	.	.	.	.	.	.
8G\J	.	.	16B/	.	8b\J	.	8G\	-ra	.	8d\	-ra	.	8g\	-ra	8b\	-ra	-am	.	.
.	.	.	16d/JJ	.	.	.	.	.	.	.	.	.	.	.	.	.	.	.	.
!	!	!	!	!	!	!	!	!	!	!	!	!	!	!	!LO:LB:g=original	!	!	!	!
=16	=16	=16	=16	=16	=16	=16	=16	=16	=16	=16	=16	=16	=16	=16	=16	=16	=16	=16	=16
8F#\L	6 5	.	16A/LL	.	(8dd\L	.	8F#\	Do-	.	8d\	Do-	.	8a\	Do-	8cc\	Do-	Do-	2.ryy	2.ryy
.	.	.	16d/	.	.	.	.	.	.	.	.	.	.	.	.	.	.	.	.
8F#\	.	.	16A/	.	8cc\J)	.	8F#\	-mi-	.	8d\	-mi-	.	8a\	-mi-	8cc\	-mi-	-mi-	.	.
.	.	.	16d/JJ	.	.	.	.	.	.	.	.	.	.	.	.	.	.	.	.
8F#\	.	.	16A/LL	.	4aa\|	.	8F#\	-ni	.	8d\	-ni	.	8a\	-ni	8cc\	-ni	-no	.	.
.	.	.	16d/	.	.	.	.	.	.	.	.	.	.	.	.	.	.	.	.
!	!	!	!	!	!	!	!	!	!	!	!	!	!	!	!	!LO:SIC:v:l:s=ex-	!	!	!
8F#\	.	.	16A/	.	.	.	8F#\	ex-	.	8d\	ex-	.	8a\	ex-	8cc\	es-	pro	.	.
.	.	.	16d/JJ	.	.	.	.	.	.	.	.	.	.	.	.	.	.	.	.
8F#\	.	.	16A/LL	.	8r	.	8F#\	-qui-	.	8d\	-qui-	.	8a\	-qui-	8cc\	-qui-	o-	.	.
.	.	.	16d/	.	.	.	.	.	.	.	.	.	.	.	.	.	.	.	.
8F#\J	.	.	16A/	.	8cc\	.	8F#\	-si-	.	8d\	-ſi-	.	8a\	-si-	8cc\	-si-	-mni-	.	.
.	.	.	16d/JJ	.	.	.	.	.	.	.	.	.	.	.	.	.	.	.	.
!	!	!	!	!	!	!	!LO:LB:g=original	!	!	!	!	!	!	!	!	!	!	!	!
=17	=17	=17	=17	=17	=17	=17	=17	=17	=17	=17	=17	=17	=17	=17	=17	=17	=17	=17	=17
*	*	*	*tremolo	*	*	*	*	*	*	*	*	*	*	*	*	*	*	*	*
8G\L	.	.	16B/LL	.	4.b\	.	8G\	-ta	.	8d\	-ta	.	8g\	-ta	8b\	-ta	-bus	2.ryy	2.ryy
.	.	.	16d/	.	.	.	.	.	.	.	.	.	.	.	.	.	.	.	.
8G\	.	.	16B/	.	.	.	8G\	in	.	8d\	in	.	8g\	in	8b\	in	que	.	.
.	.	.	16d/	.	.	.	.	.	.	.	.	.	.	.	.	.	.	.	.
!	!	!	!	!	!	!	!	!	!	!	!	!	!LO:LB:g=original	!	!	!	!	!	!
8G\	.	.	16B/	.	.	.	8G\	o-	.	8d\	o-	.	8g\	o-	8b\	o-	re-	.	.
.	.	.	16d/	.	.	.	.	.	.	.	.	.	.	.	.	.	.	.	.
8G\	.	.	16B/	.	(16dd\LL	.	8G\	-mnes	.	8d\	-mnes	.	8g\	-mnes	8b\	-mnes	-tri-	.	.
.	.	.	16d/	.	16cc\JJ)	.	.	.	.	.	.	.	.	.	.	.	.	.	.
!	!	!	!	!	!	!	!	!	!	!	!	!	!	!	!	!LO:MO:mod=Vo-	!	!	!
8G\	.	.	16B/	.	8b\L	.	8G\	Vo-	.	8d\	Vo-	.	8g\	Vo-	8b\	vo-	-bu-	.	.
.	.	.	16d/	.	.	.	.	.	.	.	.	.	.	.	.	.	.	.	.
8G\J	.	.	16B/	.	8b\J	.	8G\	-lun-	.	8d\	-lun-	.	8g\	-lun-	8b\	-lun-	-it	.	.
.	.	.	16d/JJ	.	.	.	.	.	.	.	.	.	.	.	.	.	.	.	.
!	!	!	!	!	!LO:LB:g=original	!	!	!	!	!LO:LB:g=original	!	!	!	!	!	!	!	!	!
=18	=18	=18	=18	=18	=18	=18	=18	=18	=18	=18	=18	=18	=18	=18	=18	=18	=18	=18	=18
*	*	*	*	*	*	*	*	*	*	*	*	*	*	*	*	*	*ij	*	*
8F#\L	6 5	.	16A/LL	.	(8dd\L	.	8F#\	-ta-	.	8d\	-ta-	.	8a\	-ta-	8dd\	-ta-	tri-	2.ryy	2.ryy
.	.	.	16d/	.	.	.	.	.	.	.	.	.	.	.	.	.	.	.	.
!	!	!	!	!	!	!	!	!LO:MO:mod=-tes	!	!	!LO:MO:mod=-tes	!	!	!	!	!	!	!	!
8F#\	.	.	16A/	.	8cc\J)	.	8F#\	-tis	.	8d\	-tis	.	8a\	-tes	8cc\	-tes	-bu-	.	.
.	.	.	16d/	.	.	.	.	.	.	.	.	.	.	.	.	.	.	.	.
*	*	*	*	*	*	*	*2\right	*	*	*2\right	*	*	*2\right	*	*	*	*	*	*
8F#\	.	.	16A/	.	4aa\	.	2F#\	e-	.	2d\	e-	.	2a\	e-	4.cc\	e-	-it	.	.
*	*	*	*	*	*	*	*	*	*	*	*	*	*	*	*	*	*Xij	*	*
.	.	.	16d/	.	.	.	.	.	.	.	.	.	.	.	.	.	.	.	.
8F#\	.	.	16A/	.	.	.	.	.	.	.	.	.	.	.	.	.	.	.	.
.	.	.	16d/	.	.	.	.	.	.	.	.	.	.	.	.	.	.	.	.
8F#\	.	.	16A/	.	8r	.	.	.	.	.	.	.	.	.	.	.	.	.	.
.	.	.	16d/	.	.	.	.	.	.	.	.	.	.	.	.	.	.	.	.
8F#\J	.	.	16A/	.	8cc\	.	.	.	.	.	.	.	.	.	16dd\LL	.	mi-	.	.
.	.	.	16d/JJ	.	.	.	.	.	.	.	.	.	.	.	16cc\JJ	.	.	.	.
=19	=19	=19	=19	=19	=19	=19	=19	=19	=19	=19	=19	=19	=19	=19	=19	=19	=19	=19	=19
8G\L	.	.	16B/LL	.	8b/L	.	4G\	-jus	.	4d\	-jus	.	4g\	-jus	4b\	-jus	-hi	2.ryy	2.ryy
.	.	.	16d/	.	.	.	.	.	.	.	.	.	.	.	.	.	.	.	.
8G\	.	.	16B/	.	16g/L	.	.	.	.	.	.	.	.	.	.	.	.	.	.
.	.	.	16d/	.	16b/JJ	.	.	.	.	.	.	.	.	.	.	.	.	.	.
8G\	.	.	16B/	.	8dd\L	.	4r	.	.	4r	.	.	4r	.	4r	.	.	.	.
.	.	.	16d/	.	.	.	.	.	.	.	.	.	.	.	.	.	.	.	.
8G\	.	.	16B/	.	8dd\J	.	.	.	.	.	.	.	.	.	.	.	.	.	.
.	.	.	16d/	.	.	.	.	.	.	.	.	.	.	.	.	.	.	.	.
!	!	!	!	!	!	!	!	!LO:MO:mod=Con-	!	!	!LO:MO:mod=Con-	!	!	!	!	!	!	!	!
8G\	.	.	16B/	.	16gg\LL	.	4G\	con-	.	4d\	con-	.	4g\	Con-	4b\	Con-	Ca-	.	.
.	.	.	16d/	.	16dd\	.	.	.	.	.	.	.	.	.	.	.	.	.	.
8G\J	.	.	16B/	.	16cc\	.	.	.	.	.	.	.	.	.	.	.	.	.	.
.	.	.	16d/JJ	.	16b\JJ	.	.	.	.	.	.	.	.	.	.	.	.	.	.
*Xtremolo	*	*	*Xtremolo	*	*	*	*	*	*	*	*	*	*	*	*	*	*	*	*
!	!	!	!	!	!	!	!	!	!	!	!	!	!	!	!LO:LB:g=original	!	!	!	!
=20	=20	=20	=20	=20	=20	=20	=20	=20	=20	=20	=20	=20	=20	=20	=20	=20	=20	=20	=20
!	!	!	!	!	!	!	!	!	!	!	!LO:MO:mod=-fe-	!	!	!LO:MO:mod=-fe-	!	!	!	!	!
8d\L	4	.	16g/LL	.	(8.b/L	.	8d\	-fe-	.	8d\	-feſ-	.	8g\	-feſ-	8b\	-fe-	-li-	2.ryy	2.ryy
.	.	.	16g/	.	.	.	.	.	.	.	.	.	.	.	.	.	.	.	.
8d\	.	.	16g/	.	.	.	8d\	-si-	.	8d\	-si-	.	8g\	-si-	8b\	-si-	-cem	.	.
.	.	.	16g/JJ	.	32a/LL	.	.	.	.	.	.	.	.	.	.	.	.	.	.
.	.	.	.	.	32b/JJJ)	.	.	.	.	.	.	.	.	.	.	.	.	.	.
*	*	*	*tremolo	*	*	*	*	*	*	*	*	*	*	*	*	*	*	*	*
8D\	3	.	16f#/LL	.	8a/L	.	4D\	-o	.	4d\	-o	.	4f#\	-o	4a\	-o	Sa-	.	.
.	.	.	16f#/	.	.	.	.	.	.	.	.	.	.	.	.	.	.	.	.
8D\	.	.	16f#/	.	8d/|	.	.	.	.	.	.	.	.	.	.	.	.	.	.
.	.	.	16f#/	.	.	.	.	.	.	.	.	.	.	.	.	.	.	.	.
8D\	.	.	16f#/	.	8f#/|	.	4D\	et	.	4d\	et	.	4f#\	et	4a\	et	-lu-	.	.
.	.	.	16f#/	.	.	.	.	.	.	.	.	.	.	.	.	.	.	.	.
8D\J	.	.	16f#/	.	8a/J|	.	.	.	.	.	.	.	.	.	.	.	.	.	.
.	.	.	16f#/JJ	.	.	.	.	.	.	.	.	.	.	.	.	.	.	.	.
*	*	*	*Xtremolo	*	*	*	*	*	*	*	*	*	*	*	*	*	*	*	*
!	!	!	!LO:LB:g=original	!	!	!	!LO:LB:g=original	!	!	!	!	!	!	!	!	!	!	!	!
=21	=21	=21	=21	=21	=21	=21	=21	=21	=21	=21	=21	=21	=21	=21	=21	=21	=21	=21	=21
*tremolo	*	*	*	*	*	*	*	*	*	*	*	*	*	*	*	*	*	*	*
!	!	!	!	!	!	!	!	!LO:MO:mod=Ma-	!	!	!	!	!	!	!	!LO:MO:mod=Ma-	!	!	!
8F#\L	6 5	.	16d/LL	.	8dd\L	.	4F#\	ma-	.	4d\	Ma-	.	4a\	Ma-	4dd\	ma-	-ta-	2.ryy	2.ryy
.	.	.	16a/	.	.	.	.	.	.	.	.	.	.	.	.	.	.	.	.
8F#\	.	.	16d/	.	16ee\L	.	.	.	.	.	.	.	.	.	.	.	.	.	.
.	.	.	16a/JJ	.	16dd\JJ	.	.	.	.	.	.	.	.	.	.	.	.	.	.
8F#\	.	.	16d/LL	.	8cc\L	.	4F#\	-gni-	.	4d\	-gni-	.	4a\	-gni-	4cc\	-gni-	-ris	.	.
.	.	.	16a/	.	.	.	.	.	.	.	.	.	.	.	.	.	.	.	.
8F#\	.	.	16d/	.	8cc\J	.	.	.	.	.	.	.	.	.	.	.	.	.	.
.	.	.	16a/JJ	.	.	.	.	.	.	.	.	.	.	.	.	.	.	.	.
8F#\	.	.	16d/LL	.	16aa\LL	.	4F#\	-fi-	.	4d\	-fi-	.	4a\	-fi-	4cc\	-fi-	.	.	.
.	.	.	16a/	.	16ff#\	.	.	.	.	.	.	.	.	.	.	.	.	.	.
8F#\J	.	.	16d/	.	16dd\	.	.	.	.	.	.	.	.	.	.	.	.	.	.
.	.	.	16a/JJ	.	16cc\JJ	.	.	.	.	.	.	.	.	.	.	.	.	.	.
*Xtremolo	*	*	*	*	*	*	*	*	*	*	*	*	*	*	*	*	*	*	*
!LO:LB:g=original	!	!	!	!	!	!	!	!	!	!	!	!	!	!	!	!	!	!	!
=22	=22	=22	=22	=22	=22	=22	=22	=22	=22	=22	=22	=22	=22	=22	=22	=22	=22	=22	=22
!LO:TX:t=P:problem=mixed beam	!	!	!	!	!	!	!	!	!	!	!	!	!	!	!	!	!	!	!
8G\L	4	.	8.a/L	.	(8.cc\L	.	8G\	-cen-	.	8d\	-cen-	.	8a\	-cen-	8cc\	-cen-	ac-	2.ryy	2.ryy
8G\	.	.	.	.	.	.	8G\	-ti-	.	8d\	-ti-	.	8a\	-ti-	8cc\	-ti-	-ci-	.	.
.	.	.	32b/LL	.	32dd\LL	.	.	.	.	.	.	.	.	.	.	.	.	.	.
.	.	.	32a/JJJ	.	32cc\JJJ)	.	.	.	.	.	.	.	.	.	.	.	.	.	.
!	!	!	!	!	!	!	!	!	!	!	!	!	!LO:LB:g=original	!	!	!	!	!	!
8GG/	3	.	8g/L	.	8b\L	.	4G\	-a	.	4d\	-a	.	4g\	-a	4b\	-a	-i-	.	.
8GG/	.	.	8d/	.	8g\	.	.	.	.	.	.	.	.	.	.	.	.	.	.
!	!	!	!	!	!	!	!	!	!	!LO:LB:g=original	!	!	!	!	!	!	!	!	!
8G\	.	.	8g/	.	8b\	.	8G\	o-	.	8d\	o-	.	8g\	o-	8b\	o-	.	.	.
8G\J	.	.	8b/J	.	8dd\J	.	8G\	-pus	.	8d\	-pus	.	8g\	-pus	8b\	-pus	.	.	.
=23	=23	=23	=23	=23	=23	=23	=23	=23	=23	=23	=23	=23	=23	=23	=23	=23	=23	=23	=23
4F#\	6 5	.	8.a/L	.	8.dd\L	.	4F#\	e-	.	4d\	e-	.	4a\	e-	4cc\	e-	.	2.ryy	2.ryy
.	.	.	32b/LL	.	16cc\Jk	.	.	.	.	.	.	.	.	.	.	.	.	.	.
.	.	.	32a/JJJ	.	.	.	.	.	.	.	.	.	.	.	.	.	.	.	.
!	!	!	!	!	!LO:LB:g=original	!	!	!	!	!	!	!	!	!	!	!	!	!	!
4G\	.	.	8g/L	.	16b\LL	.	4G\	-ius	.	4d\	-jus	.	4g\	-jus	4b\	-jus	-am	.	.
.	.	.	.	.	16gg\	.	.	.	.	.	.	.	.	.	.	.	.	.	.
.	.	.	8b/J	.	16aa\	.	.	.	.	.	.	.	.	.	.	.	.	.	.
.	.	.	.	.	16gg\JJ	.	.	.	.	.	.	.	.	.	.	.	.	.	.
4r	.	.	16dd\LL	.	16ff#\LL	.	4r	.	.	4r	.	.	4r	.	4r	.	.	.	.
.	.	.	16cc\	.	16ee\	.	.	.	.	.	.	.	.	.	.	.	.	.	.
.	.	.	16b\	.	16dd\	.	.	.	.	.	.	.	.	.	.	.	.	.	.
.	.	.	16a\JJ	.	16cc\JJ	.	.	.	.	.	.	.	.	.	.	.	.	.	.
=24	=24	=24	=24	=24	=24	=24	=24	=24	=24	=24	=24	=24	=24	=24	=24	=24	=24	=24	=24
8G\L	.	.	16g/LL	.	(8.b\L	.	2G\	et	.	2B\	et	.	2g\	et	2b\	et	et	2.ryy	2.ryy
.	.	.	16g/	.	.	.	.	.	.	.	.	.	.	.	.	.	.	.	.
8G\	.	.	16g/	.	.	.	.	.	.	.	.	.	.	.	.	.	.	.	.
.	.	.	16g/JJ	.	32dd\LL	.	.	.	.	.	.	.	.	.	.	.	.	.	.
.	.	.	.	.	32cc\JJJ)	.	.	.	.	.	.	.	.	.	.	.	.	.	.
*	*	*	*tremolo	*	*	*	*	*	*	*	*	*	*	*	*	*	*	*	*
8G\	.	.	16g/LL	.	8b\L|	.	.	.	.	.	.	.	.	.	.	.	.	.	.
.	.	.	16g/	.	.	.	.	.	.	.	.	.	.	.	.	.	.	.	.
8G\	.	.	16g/	.	8b\J|	.	.	.	.	.	.	.	.	.	.	.	.	.	.
.	.	.	16g/	.	.	.	.	.	.	.	.	.	.	.	.	.	.	.	.
!	!	!	!	!	!	!	!	!	!	!	!	!	!	!	!	!LO:MO:mod=Jus-	!	!	!
8E\	6\ 3	.	16g/	.	8cc#X\L	.	4E\	Jus-	.	4B\	Jus-	.	4g\	Jus-	4cc#X\	jus-	no-	.	.
.	.	.	16g/	.	.	.	.	.	.	.	.	.	.	.	.	.	.	.	.
8E\J	.	.	16g/	.	16b\L	.	.	.	.	.	.	.	.	.	.	.	.	.	.
.	.	.	16g/JJ	.	16cc#\JJ	.	.	.	.	.	.	.	.	.	.	.	.	.	.
*	*	*	*Xtremolo	*	*	*	*	*	*	*	*	*	*	*	*	*	*	*	*
=25	=25	=25	=25	=25	=25	=25	=25	=25	=25	=25	=25	=25	=25	=25	=25	=25	=25	=25	=25
8D\L	.	.	16f#/LL	.	8.dd\L	.	4.C\	-ti-	.	4.A\	-ti-	.	4.f#\	-ti-	4.dd\	-ti-	-men	2.ryy	2.ryy
.	.	.	16a/	.	.	.	.	.	.	.	.	.	.	.	.	.	.	.	.
8D\	.	.	16f#/	.	.	.	.	.	.	.	.	.	.	.	.	.	.	.	.
.	.	.	16a/JJ	.	32ff#\LL	.	.	.	.	.	.	.	.	.	.	.	.	.	.
.	.	.	.	.	32ee\JJJ	.	.	.	.	.	.	.	.	.	.	.	.	.	.
8D\	.	.	16f#/LL	.	8dd\L	.	.	.	.	.	.	.	.	.	.	.	.	.	.
.	.	.	16a/	.	.	.	.	.	.	.	.	.	.	.	.	.	.	.	.
8D\	.	.	16f#/	.	8dd\J	.	8D\	-ti-	.	8A\	-ti-	.	8f#\	-ti-	8dd\	-ti-	Do-	.	.
.	.	.	16a/JJ	.	.	.	.	.	.	.	.	.	.	.	.	.	.	.	.
.	.	.	.	.	16qqdd/	.	.	.	.	.	.	.	.	.	.	.	.	.	.
8F#\	6 5	.	16f#/LL	.	8ccn\L	.	4F#\	-a	.	4d\	-a	.	4a\	-a	4ccn\	-a	.	.	.
.	.	.	16a/	.	.	.	.	.	.	.	.	.	.	.	.	.	.	.	.
8F#\J	n	.	16f#/	.	16b\L	.	.	.	.	.	.	.	.	.	.	.	.	.	.
.	.	.	16a/JJ	.	16cc\JJ	.	.	.	.	.	.	.	.	.	.	.	.	.	.
!	!	!	!LO:LB:g=original	!	!	!	!LO:LB:g=original	!	!	!	!	!	!	!	!LO:LB:g=original	!	!	!	!
=26	=26	=26	=26	=26	=26	=26	=26	=26	=26	=26	=26	=26	=26	=26	=26	=26	=26	=26	=26
8G\L	.	.	16g/LL	.	8.b\L	.	2G\	e-	.	2B\	e-	.	2g\	e-	2b\	e-	-mi-	2.ryy	2.ryy
.	.	.	16g/	.	.	.	.	.	.	.	.	.	.	.	.	.	.	.	.
8G\	.	.	16g/	.	.	.	.	.	.	.	.	.	.	.	.	.	.	.	.
.	.	.	16g/JJ	.	(32dd\LL	.	.	.	.	.	.	.	.	.	.	.	.	.	.
.	.	.	.	.	32cc\JJJ)	.	.	.	.	.	.	.	.	.	.	.	.	.	.
*	*	*	*tremolo	*	*	*	*	*	*	*	*	*	*	*	*	*	*	*	*
8G\	.	.	16g/LL	.	8b\L	.	.	.	.	.	.	.	.	.	.	.	.	.	.
.	.	.	16g/	.	.	.	.	.	.	.	.	.	.	.	.	.	.	.	.
8G\	.	.	16g/	.	8b\J	.	.	.	.	.	.	.	.	.	.	.	.	.	.
.	.	.	16g/	.	.	.	.	.	.	.	.	.	.	.	.	.	.	.	.
.	.	.	.	.	8qqb/	.	.	.	.	.	.	.	.	.	.	.	.	.	.
8E\	6 3	.	16g/	.	8cc#\L	.	4E\	-ius	.	4A\	-jus	.	4g\	-jus	4cc#X\	-jus	-ni	.	.
.	.	.	16g/	.	.	.	.	.	.	.	.	.	.	.	.	.	.	.	.
8E\J	.	.	16g/	.	16b\L	.	.	.	.	.	.	.	.	.	.	.	.	.	.
.	.	.	16g/JJ	.	16cc#\JJ	.	.	.	.	.	.	.	.	.	.	.	.	.	.
*	*	*	*Xtremolo	*	*	*	*	*	*	*	*	*	*	*	*	*	*	*	*
=27	=27	=27	=27	=27	=27	=27	=27	=27	=27	=27	=27	=27	=27	=27	=27	=27	=27	=27	=27
8D\L	.	.	16f#/LL	.	8.dd\L	.	4D\	ma-	.	4A\	ma-	.	4f#\	ma-	4dd\	ma-	in-	2.ryy	2.ryy
.	.	.	16a/	.	.	.	.	.	.	.	.	.	.	.	.	.	.	.	.
8D\	.	.	16f#/	.	.	.	.	.	.	.	.	.	.	.	.	.	.	.	.
.	.	.	16a/JJ	.	32ff#\LL	.	.	.	.	.	.	.	.	.	.	.	.	.	.
.	.	.	.	.	32ee\JJJ	.	.	.	.	.	.	.	.	.	.	.	.	.	.
!	!	!	!	!	!LO:LB:g=original	!	!	!	!	!	!	!	!	!	!	!	!	!	!
8D\	.	.	16f#/LL	.	8dd\L	.	4D\	-net	.	4A\	-net	.	4f#\	-net	4dd\	-net	-vo-	.	.
.	.	.	16a/	.	.	.	.	.	.	.	.	.	.	.	.	.	.	.	.
8D\	.	.	16f#/	.	8dd\J	.	.	.	.	.	.	.	.	.	.	.	.	.	.
.	.	.	16a/JJ	.	.	.	.	.	.	.	.	.	.	.	.	.	.	.	.
.	.	.	.	.	16qqdd/	.	.	.	.	.	.	.	.	.	.	.	.	.	.
8F#\	6 5	.	16f#/LL	.	8ccn\L	.	4F#\	in	.	4d\	in	.	4a\	in	4ccn\	in	-ca-	.	.
.	.	.	16a/	.	.	.	.	.	.	.	.	.	.	.	.	.	.	.	.
8F#\J	n	.	16f#/	.	16b\L	.	.	.	.	.	.	.	.	.	.	.	.	.	.
.	.	.	16a/JJ	.	16cc\JJ	.	.	.	.	.	.	.	.	.	.	.	.	.	.
!LO:LB:g=original	!	!	!	!	!	!	!	!	!	!LO:LB:g=original	!	!	!LO:LB:g=original	!	!	!	!	!	!
=28	=28	=28	=28	=28	=28	=28	=28	=28	=28	=28	=28	=28	=28	=28	=28	=28	=28	=28	=28
8G\L	3	.	16b\LL	.	8b\L	.	4G\	Se-	.	4B\	Se-	.	4g\	Se-	4b\	Se-	-bo	2.ryy	2.ryy
.	.	.	16b\	.	.	.	.	.	.	.	.	.	.	.	.	.	.	.	.
8G\	.	.	16b\	.	16cc\L	.	.	.	.	.	.	.	.	.	.	.	.	.	.
.	.	.	16b\JJ	.	16dd\JJ	.	.	.	.	.	.	.	.	.	.	.	.	.	.
*	*	*	*2\right	*	*	*	*	*	*	*	*	*	*	*	*	*	*	*	*
*	*	*	*tremolo	*	*	*	*	*	*	*	*	*	*	*	*	*	*ij	*	*
8G\	6	.	16b\LL	.	8ee\L	.	4G\	-cu-	.	4B\	-cu-	.	4g\	-cu-	4ee\	-cu-	in-	.	.
.	.	.	16b\	.	.	.	.	.	.	.	.	.	.	.	.	.	.	.	.
8G\	.	.	16b\	.	8ee\	.	.	.	.	.	.	.	.	.	.	.	.	.	.
.	.	.	16b\	.	.	.	.	.	.	.	.	.	.	.	.	.	.	.	.
8G#X\	5	.	16b\	.	8dd\	.	4G#X\	-lum	.	4B\	-lum	.	4f#\	-lum	4dd\	-lum	-vo-	.	.
.	.	.	16b\	.	.	.	.	.	.	.	.	.	.	.	.	.	.	.	.
8G#\J	.	.	16b\	.	8dd\J	.	.	.	.	.	.	.	.	.	.	.	.	.	.
.	.	.	16b\JJ	.	.	.	.	.	.	.	.	.	.	.	.	.	.	.	.
*	*	*	*Xtremolo	*	*	*	*	*	*	*	*	*	*	*	*	*	*	*	*
=29	=29	=29	=29	=29	=29	=29	=29	=29	=29	=29	=29	=29	=29	=29	=29	=29	=29	=29	=29
*	*	*	*	*	*	*	*	*ij	*	*	*ij	*	*	*ij	*	*ij	*	*	*
8A\L	#_	.	16e/LL	.	8.cc#X\L	.	4A\	Se-	.	4A\	Se-	.	4e\	Se-	4cc#X\	Se-	-ca-	2.ryy	2.ryy
.	.	.	16a/	.	.	.	.	.	.	.	.	.	.	.	.	.	.	.	.
8A\	.	.	16e/	.	.	.	.	.	.	.	.	.	.	.	.	.	.	.	.
.	.	.	16a/JJ	.	16ee\Jk	.	.	.	.	.	.	.	.	.	.	.	.	.	.
8Gn\	.	.	16e/LL	.	8a\L	.	4Gn\	-cu-	.	4A\	-cu-	.	4e\	-cu-	4cc#\	-cu-	-bo	.	.
.	.	.	16a/	.	.	.	.	.	.	.	.	.	.	.	.	.	.	.	.
8G\	.	.	16e/	.	16b\L	.	.	.	.	.	.	.	.	.	.	.	.	.	.
.	.	.	16a/JJ	.	16cc#\JJ	.	.	.	.	.	.	.	.	.	.	.	.	.	.
8F#\	6	.	16f#/LL	.	16dd\LL	.	4F#\	-lum	.	4A\	-lum	.	4f#\	-lum	4dd\	-lum	in-	.	.
*	*	*	*	*	*	*	*	*Xij	*	*	*Xij	*	*	*Xij	*	*Xij	*	*	*
.	.	.	16a/	.	16ee\	.	.	.	.	.	.	.	.	.	.	.	.	.	.
8F#\J	.	.	16f#/	.	16ff#\	.	.	.	.	.	.	.	.	.	.	.	.	.	.
.	.	.	16a/JJ	.	16dd\JJ	.	.	.	.	.	.	.	.	.	.	.	.	.	.
=30	=30	=30	=30	=30	=30	=30	=30	=30	=30	=30	=30	=30	=30	=30	=30	=30	=30	=30	=30
!LO:TX:t=P:problem=mixed beam	!	!	!	!	!	!	!	!	!	!	!	!	!	!	!	!	!	!	!
8G\L	6	.	8.g/L	.	8.ee\L	.	4G\	Se-	.	(4B\	Se-	.	4g\	Se-	4ee\	Se-	-vo-	2.ryy	2.ryy
8G\	.	.	.	.	.	.	.	.	.	.	.	.	.	.	.	.	.	.	.
.	.	.	32a/LL	.	32ff#\LL	.	.	.	.	.	.	.	.	.	.	.	.	.	.
.	.	.	32b/JJJ	.	32gg\JJJ	.	.	.	.	.	.	.	.	.	.	.	.	.	.
8A\	4	.	8a/L	.	8ff#\L	.	4A\	.	.	4A\)	.	.	4f#\	.	4dd\	-cu-	-ca-	.	.
8A\	.	.	8f#/	.	8dd\J	.	.	.	.	.	.	.	.	.	.	.	.	.	.
!	!	!	!	!	!LO:TX:t=P:problem=mixed beam	!	!	!	!	!	!	!	!LO:TX:a:B:t=t	!	!	!	!	!	!
8AA/	#	.	8g/	.	8e/L	.	4AA/	-cu-	.	4A\	-cu-	.	4e\	-cu-	4cc#X\	.	.	.	.
8AA/J	.	.	8e/J	.	8cc#X\J	.	.	.	.	.	.	.	.	.	.	.	.	.	.
=31	=31	=31	=31	=31	=31	=31	=31	=31	=31	=31	=31	=31	=31	=31	=31	=31	=31	=31	=31
!	!	!	!LO:TX:t=P:problem=mixed beam	!	!	!	!	!	!	!	!	!	!	!	!	!	!	!	!
4D\	.	.	8f#/L	.	8dd\L	.	4D\	-li	.	4A\	-li	.	4f#\	-li	4dd\	-li	-bo	2.ryy	2.ryy
*	*	*	*	*	*	*	*	*	*	*	*	*	*	*	*	*	*Xij	*	*
.	.	.	16ff#\L	.	16ff#\L	.	.	.	.	.	.	.	.	.	.	.	.	.	.
.	.	.	16ee\JJ	.	16ee\JJ	.	.	.	.	.	.	.	.	.	.	.	.	.	.
!	!	!	!LO:LB:g=original	!	!	!	!	!	!	!	!	!	!	!	!	!	!	!	!
4r	.	.	8dd/L	.	8dd/L	.	4r	.	.	4r	.	.	4r	.	4r	.	.	.	.
.	.	.	8a/	.	8a/	.	.	.	.	.	.	.	.	.	.	.	.	.	.
4r	.	.	8f#/	.	8f#/	.	4r	.	.	4r	.	.	4r	.	4r	.	.	.	.
.	.	.	8a/J	.	8a/J	.	.	.	.	.	.	.	.	.	.	.	.	.	.
!	!	!	!	!	!LO:LB:g=original	!	!LO:LB:g=original	!	!	!	!	!	!	!	!	!	!	!	!
=32	=32	=32	=32	=32	=32	=32	=32	=32	=32	=32	=32	=32	=32	=32	=32	=32	=32	=32	=32
!LO:TX:a:i:t=Solo	!	!LO:DY:a:rj	!	!LO:DY:a	!	!	!	!	!	!	!	!	!LO:TX:a:i:t=Solo	!	!	!	!	!	!
4D\	.	p	8d/L	p	8f#/L	p	0.r	.	.	8d\L	Me-	Vo-	8f#\L	Me-	0.r	.	.	2.ryy	2.ryy
.	.	.	8f#/	.	8a/	.	.	.	.	8f#\J	.	-ta	8a\J	.	.	.	.	.	.
4D\	.	.	8d/	.	8f#/	.	.	.	.	4f#\	-mor-	me-	4a\	-mo-	.	.	.	.	.
.	.	.	8f#/	.	8a/	.	.	.	.	.	.	.	.	.	.	.	.	.	.
4D\	.	.	8d/	.	8f#/	.	.	.	.	16f#\LL	-i-	.	16a\LL	-ri-	.	.	.	.	.
.	.	.	.	.	.	.	.	.	.	16e\JJ	.	.	16g\JJ	.	.	.	.	.	.
.	.	.	8f#/J	.	8a/J	.	.	.	.	16f#\LL	-am	-o	16a\LL	-am	.	.	.	.	.
.	.	.	.	.	.	.	.	.	.	16g\JJ	.	.	16b\JJ	.	.	.	.	.	.
!	!	!	!	!	!	!	!	!	!	!LO:LB:g=original	!	!	!	!	!	!	!	!	!
=33	=33	=33	=33	=33	=33	=33	=33	=33	=33	=33	=33	=33	=33	=33	=33	=33	=33	=33	=33
*	*	*	*tremolo	*	*tremolo	*	*	*	*	*	*	*	*	*	*	*	*	*	*
4r	.	.	8c#X/L	.	8e/L	.	.	.	.	8f#\L	fe-	Do-	8a\L	fe-	.	.	.	2.ryy	2.ryy
.	.	.	8e/	.	8g/	.	.	.	.	8e\J	.	mi-	8g\J	.	.	.	.	.	.
4A\	.	.	8c#/	.	8e/	.	.	.	.	4e\	-cit	-ni	4g\	-cit	.	.	.	.	.
.	.	.	8e/	.	8g/	.	.	.	.	.	.	.	.	.	.	.	.	.	.
!	!	!	!	!	!	!	!	!	!	!	!	!	!LO:LB:g=original	!	!	!	!	!	!
4A\	#	.	8c#/	.	8e/	.	.	.	.	16e\LL	mi-	re-	16g\LL	mi-	.	.	.	.	.
.	.	.	.	.	.	.	.	.	.	16f#\JJ	.	.	16a\JJ	.	.	.	.	.	.
.	.	.	8e/J	.	8g/J	.	.	.	.	16e\LL	-ra-	-dam	16g\LL	-ra-	.	.	.	.	.
.	.	.	.	.	.	.	.	.	.	16d\JJ	.	.	16f#\JJ	.	.	.	.	.	.
=34	=34	=34	=34	=34	=34	=34	=34	=34	=34	=34	=34	=34	=34	=34	=34	=34	=34	=34	=34
4r	.	.	8c#X/L	.	8e/L	.	.	.	.	8c#X\	-bi-	co-	8e\	-bi-	.	.	.	2.ryy	2.ryy
.	.	.	8e/	.	8g/	.	.	.	.	8e\	-li-	-ram	8g\	-li-	.	.	.	.	.
4AA/	.	.	8c#/	.	8e/	.	.	.	.	4e\	-um	o-	4g\	-um	.	.	.	.	.
.	.	.	8e/	.	8g/	.	.	.	.	.	.	.	.	.	.	.	.	.	.
!	!	!	!	!	!	!	!	!	!	!	!LO:MO:null:mod=Su-	!	!	!	!	!	!	!	!
4AA/	.	.	8c#/	.	8e/	.	.	.	.	16e\LL	.	-mni	16g\LL	Su-	.	.	.	.	.
.	.	.	.	.	.	.	.	.	.	16d\JJ	.	.	16f#\JJ	.	.	.	.	.	.
!	!	!	!	!	!	!	!	!	!	!	!LO:MO:mod=.	!	!	!	!	!	!	!	!
.	.	.	8e/J	.	8g/J	.	.	.	.	16e\LL	su-	po-	16g\LL	.	.	.	.	.	.
.	.	.	.	.	.	.	.	.	.	16f#\JJ	.	pu-	16a\JJ	.	.	.	.	.	.
!LO:PB:g=original	!	!	!	!	!	!	!	!	!	!	!	!	!	!	!	!	!	!	!
=35	=35	=35	=35	=35	=35	=35	=35	=35	=35	=35	=35	=35	=35	=35	=35	=35	=35	=35	=35
!	!	!	!	!	!	!	!	!	!	!	!LO:MO:null:mod=-o-	!	!	!	!	!	!	!	!
4r	.	.	8d/L	.	8f#/L	.	.	.	.	8e\L	.	-lo	8g\L	-o-	.	.	.	2.ryy	2.ryy
.	.	.	8f#/	.	8a/	.	.	.	.	8d\J	.	e-	8f#\J	.	.	.	.	.	.
4D/	.	.	8d/	.	8f#/	.	.	.	.	4d\	-um	-ius	4f#\	-rum	.	.	.	.	.
.	.	.	8f#/	.	8a/	.	.	.	.	.	.	.	.	.	.	.	.	.	.
4D/	.	.	8d/	.	8f#/	.	.	.	.	4r	.	.	4r	.	.	.	.	.	.
.	.	.	8f#/J	.	8a/J	.	.	.	.	.	.	.	.	.	.	.	.	.	.
*	*	*	*Xtremolo	*	*Xtremolo	*	*	*	*	*	*	*	*	*	*	*	*	*	*
=36	=36	=36	=36	=36	=36	=36	=36	=36	=36	=36	=36	=36	=36	=36	=36	=36	=36	=36	=36
!	!	!	!	!	!	!	!	!	!	!LO:MO:mod=!LO&colon;TX&colon;a&colon;i&colon;t=Solo	!	!	!	!	!	!	!	!	!
!	!	!	!	!	!	!	!	!	!	!LO:TX:a:i:t=Solo:rj:color=grey	!	!	!	!	!	!	!	!	!
4r	.	.	8d/L	.	8f#/L	.	0.r	.	.	8d\L	mi-	pre-	8f#\L	mi-	0.r	.	.	2.ryy	2.ryy
.	.	.	8c#X/	.	8e/	.	.	.	.	8c#X\J	.	-ti-	8e\J	.	.	.	.	.	.
4D\	.	.	8d/	.	8f#/	.	.	.	.	8d\L	-ſe-	-o-	8f#\L	-se-	.	.	.	.	.
.	.	.	8f#/	.	8a/	.	.	.	.	8f#\J	.	-sa	8a\J	.	.	.	.	.	.
4F#\	6	.	8e/	.	8g/	.	.	.	.	8e\L	-ri-	in	8g\L	-ri-	.	.	.	.	.
.	.	.	8d/J	.	8f#/J	.	.	.	.	8d\J	.	.	8f#\J	.	.	.	.	.	.
!	!	!	!	!	!	!	!	!	!	!LO:LB:g=original	!	!	!	!	!	!	!	!	!
=37	=37	=37	=37	=37	=37	=37	=37	=37	=37	=37	=37	=37	=37	=37	=37	=37	=37	=37	=37
8A\L	#	.	4.c#X/	.	4.e/	.	.	.	.	2c#X\	-cors	con-	2e\	-cors	.	.	.	2.ryy	2.ryy
8B\	.	.	.	.	.	.	.	.	.	.	.	.	.	.	.	.	.	.	.
8A\	.	.	.	.	.	.	.	.	.	.	.	.	.	.	.	.	.	.	.
8G\	.	.	16B/LL	.	16d/LL	.	.	.	.	.	.	.	.	.	.	.	.	.	.
.	.	.	16c#/JJ	.	16e/JJ	.	.	.	.	.	.	.	.	.	.	.	.	.	.
8F#\	6	.	4d/	.	4f#/	.	.	.	.	4d\	et	-spe-	4f#\	et	.	.	.	.	.
8D\J	.	.	.	.	.	.	.	.	.	.	.	.	.	.	.	.	.	.	.
!	!	!	!	!	!	!	!	!	!	!	!	!	!LO:LB:g=original	!	!	!	!	!	!
=38	=38	=38	=38	=38	=38	=38	=38	=38	=38	=38	=38	=38	=38	=38	=38	=38	=38	=38	=38
8C#X/L	6 5	.	4e/	.	4g/	.	.	.	.	8e\	mi-	-ctu	8g\	mi-	.	.	.	2.ryy	2.ryy
8BB/	.	.	.	.	.	.	.	.	.	8e\	-ſe-	Do-	8g\	-ſe-	.	.	.	.	.
8C#/	.	.	16f#/LL	.	16a/LL	.	.	.	.	4e\	-ra-	-mi-	4g\	-ra-	.	.	.	.	.
.	.	.	16e/	.	16g/	.	.	.	.	.	.	.	.	.	.	.	.	.	.
8BB/J	.	.	16d/	.	16f#/	.	.	.	.	.	.	.	.	.	.	.	.	.	.
.	.	.	16e/JJ	.	16g/JJ	.	.	.	.	.	.	.	.	.	.	.	.	.	.
!	!	!	!	!	!LO:TX:t=P:problem=mixed beam	!	!	!	!	!	!	!	!	!	!	!	!	!	!
8D\L	.	.	8d/L	.	8f#/L	.	.	.	.	4d\	-tur	-ni	4f#\	-tor	.	.	.	.	.
8F#\J	.	.	8A/J	.	8dd\J	.	.	.	.	.	.	.	.	.	.	.	.	.	.
!	!	!	!LO:LB:g=original	!	!LO:LB:g=original	!	!	!	!	!	!	!	!	!	!	!	!	!	!
=39	=39	=39	=39	=39	=39	=39	=39	=39	=39	=39	=39	=39	=39	=39	=39	=39	=39	=39	=39
*	*	*	*	*	*	*	*	*	*	*	*	*ij	*	*	*	*	*	*	*
4A\	4	.	8d/L	.	8g/L	.	.	.	.	8d\	Do-	Do-	8f#\	Do-	.	.	.	2.ryy	2.ryy
.	.	.	16c#X/L	.	16e/L	.	.	.	.	16c#X\LL	-mi-	-mi-	16e\LL	-mi-	.	.	.	.	.
.	.	.	16d/JJ	.	16f#/JJ	.	.	.	.	16d\JJ	.	.	16f#\JJ	.	.	.	.	.	.
4AA/	#	.	8c#/L	.	8e/L	.	.	.	.	4c#\	-nus	-ni	4e\	-nus	.	.	.	.	.
*	*	*	*	*	*	*	*	*	*	*	*	*Xij	*	*	*	*	*	*	*
.	.	.	16A/L	.	16c#X/L	.	.	.	.	.	.	.	.	.	.	.	.	.	.
.	.	.	16B/JJ	.	16d/JJ	.	.	.	.	.	.	.	.	.	.	.	.	.	.
4r	.	.	8c#/L	.	16e/LL	.	.	.	.	4r	.	.	4r	.	.	.	.	.	.
.	.	.	.	.	16f#/	.	.	.	.	.	.	.	.	.	.	.	.	.	.
.	.	.	8c#/J	.	16g/	.	.	.	.	.	.	.	.	.	.	.	.	.	.
.	.	.	.	.	16a/JJ	.	.	.	.	.	.	.	.	.	.	.	.	.	.
=40	=40	=40	=40	=40	=40	=40	=40	=40	=40	=40	=40	=40	=40	=40	=40	=40	=40	=40	=40
*	*	*	*	*	*tremolo	*	*	*	*	*	*	*	*	*	*	*	*	*	*
!	!	!	!	!	!	!	!	!	!	!	!	!	!	!LO:MO:mod=Es-	!	!	!	!	!
4AA/	#	.	8c#X/L	.	8e/L	.	0.r	.	.	2c#X\	Es-	Mors	2e\	eſ-	0.r	.	.	2.ryy	2.ryy
.	.	.	8e/	.	8a/	.	.	.	.	.	.	.	.	.	.	.	.	.	.
4A\	.	.	8c#/	.	8e/	.	.	.	.	.	.	.	.	.	.	.	.	.	.
.	.	.	8e/	.	8a/	.	.	.	.	.	.	.	.	.	.	.	.	.	.
4G\	.	.	8c#/	.	8e/	.	.	.	.	8B\L	-cam	San-	8d\L	-cam	.	.	.	.	.
.	.	.	8e/J	.	8a/J	.	.	.	.	8c#\J	.	.	8e\J	.	.	.	.	.	.
*	*	*	*	*	*Xtremolo	*	*	*	*	*	*	*	*	*	*	*	*	*	*
=41	=41	=41	=41	=41	=41	=41	=41	=41	=41	=41	=41	=41	=41	=41	=41	=41	=41	=41	=41
4F#\	6	.	8A/L	.	8f#/L	.	.	.	.	4d\	de-	-cto-	4f#\	de-	.	.	.	2.ryy	2.ryy
.	.	.	8d/	.	8a/	.	.	.	.	.	.	.	.	.	.	.	.	.	.
!	!	!	!	!	!	!	!	!	!	!	!	!	!	!LO:MO:mod=.	!	!	!	!	!
4E\	6\	.	8A/	.	8g/	.	.	.	.	8c#X\L	.	-rum	8g\L	-dit	.	.	.	.	.
.	.	.	8c#X/	.	8a/	.	.	.	.	16B\L	.	.	16f#\L	.	.	.	.	.	.
.	.	.	.	.	.	.	.	.	.	16c#\JJ	.	.	16g\JJ	.	.	.	.	.	.
!	!	!	!	!	!	!	!	!	!	!LO:LB:g=original	!LO:MO:mod=-dit	!	!	!LO:MO:null:mod=-dit	!	!	!	!	!
4D\	.	.	8d/	.	8f#/	.	.	.	.	8d\	-di	San-	8f#\	.	.	.	.	.	.
.	.	.	8f#/J	.	8a/J	.	.	.	.	8f#\	ti-	-cto-	8a\	ti-	.	.	.	.	.
!LO:LB:g=original	!	!	!	!	!	!	!	!	!	!	!	!	!	!	!	!	!	!	!
=42	=42	=42	=42	=42	=42	=42	=42	=42	=42	=42	=42	=42	=42	=42	=42	=42	=42	=42	=42
4G\	6	.	8e/L	.	8g/L	.	.	.	.	8g\L	-men-	-rum	8b\L	-men-	.	.	.	2.ryy	2.ryy
.	.	.	8g/	.	8b/	.	.	.	.	16f#\L	.	.	16a\L	.	.	.	.	.	.
.	.	.	.	.	.	.	.	.	.	16e\JJ	.	.	16g\JJ	.	.	.	.	.	.
4A\	4	.	8f#/	.	8a/	.	.	.	.	4d\	-ti-	e-	4f#\	-ti-	.	.	.	.	.
.	.	.	8d/	.	8f#/	.	.	.	.	.	.	.	.	.	.	.	.	.	.
4AA/	#	.	8e/	.	8g/	.	.	.	.	4c#X\	-bus	.	4e\	-bus	.	.	.	.	.
.	.	.	8c#X/J	.	8e/J	.	.	.	.	.	.	.	.	.	.	.	.	.	.
!	!	!	!	!	!	!	!	!	!	!	!	!	!LO:LB:g=original	!	!	!	!	!	!
=43	=43	=43	=43	=43	=43	=43	=43	=43	=43	=43	=43	=43	=43	=43	=43	=43	=43	=43	=43
4D\	.	.	16d/LL	.	16f#/LL	.	.	.	.	4d\	se	-ius	4f#\	se	.	.	.	2.ryy	2.ryy
.	.	.	16e/	.	16g/	.	.	.	.	.	.	.	.	.	.	.	.	.	.
.	.	.	16d/	.	16f#/	.	.	.	.	.	.	.	.	.	.	.	.	.	.
.	.	.	16c#X/JJ	.	16e/JJ	.	.	.	.	.	.	.	.	.	.	.	.	.	.
!	!	!	!	!	!	!LO:HP:a:t=Cres	!	!	!	!	!	!	!	!	!	!	!	!	!
4r	.	.	8d/L	.	8f#/L	<	.	.	.	4r	.	.	4r	.	.	.	.	.	.
!	!	!	!	!LO:HP:a:t=Cres	!	!	!	!	!	!	!	!	!	!	!	!	!	!	!
.	.	.	8f#/	<	8a/|	.	.	.	.	.	.	.	.	.	.	.	.	.	.
4r	.	.	8g/	.	8b/|	.	.	.	.	4r	.	.	4r	.	.	.	.	.	.
.	.	.	8e/J	.	8cc#X/J|	.	.	.	.	.	.	.	.	.	.	.	.	.	.
=44	=44	=44	=44	=44	=44	=44	=44	=44	=44	=44	=44	=44	=44	=44	=44	=44	=44	=44	=44
*tremolo	*	*	*	*	*	*	*	*	*	*	*	*	*	*	*	*	*	*	*
!LO:TX:a:i:t=Tutti:rj	!	!	!	!LO:DY:a:rj	!	!	!	!	!	!	!	!	!	!	!	!	!	!	!
8d\L	.	.	16f#/LL	f	8.dd\L	.	2d\	ut	.	2A\	Ut	.	2f#\	ut	2dd\	ut	o	2.ryy	2.ryy
.	.	.	16a/	.	.	.	.	.	.	.	.	.	.	.	.	.	.	.	.
8d\	.	.	16f#/	.	.	.	.	.	.	.	.	.	.	.	.	.	.	.	.
*	*	*	*	*	*Xtuplet	*	*	*	*	*	*	*	*	*	*	*	*	*	*
.	.	.	16a/JJ	.	48ee\LL	.	.	.	.	.	.	.	.	.	.	.	.	.	.
.	.	.	.	.	48dd\	.	.	.	.	.	.	.	.	.	.	.	.	.	.
.	.	.	.	.	48cc#X\JJJ	.	.	.	.	.	.	.	.	.	.	.	.	.	.
8d\	.	.	16f#/LL	.	8dd\L	.	.	.	.	.	.	.	.	.	.	.	.	.	.
.	.	.	16a/	.	.	.	.	.	.	.	.	.	.	.	.	.	.	.	.
8d\	.	.	16f#/	.	8ff#\	.	.	.	.	.	.	.	.	.	.	.	.	.	.
.	.	.	16a/JJ	.	.	.	.	.	.	.	.	.	.	.	.	.	.	.	.
!	!	!	!LO:LB:g=original	!	!	!	!	!	!	!	!	!	!	!	!	!	!	!	!
8d\	.	.	16f#/LL	.	8dd\	.	4d\	det	.	4A\	det	.	4f#\	det	4dd\	det	Do-	.	.
.	.	.	16a/	.	.	.	.	.	.	.	.	.	.	.	.	.	.	.	.
8d\J	.	.	16f#/	.	8ff#\J	.	.	.	.	.	.	.	.	.	.	.	.	.	.
.	.	.	16a/JJ	.	.	.	.	.	.	.	.	.	.	.	.	.	.	.	.
!	!	!	!	!	!LO:LB:g=original	!	!	!	!	!	!	!	!	!	!LO:LB:g=original	!	!	!	!
=45	=45	=45	=45	=45	=45	=45	=45	=45	=45	=45	=45	=45	=45	=45	=45	=45	=45	=45	=45
*	*	*	*tremolo	*	*	*	*	*	*	*	*	*	*	*	*	*	*	*	*
8cn\L	4 2	.	16g/LL	.	8.dd\L	.	2cn\	il-	.	2A\	il-	.	2g\	il-	2dd\	il-	-mi-	2.ryy	2.ryy
.	.	.	16a/	.	.	.	.	.	.	.	.	.	.	.	.	.	.	.	.
8c\	.	.	16g/	.	.	.	.	.	.	.	.	.	.	.	.	.	.	.	.
.	.	.	16a/	.	48ee\LL	.	.	.	.	.	.	.	.	.	.	.	.	.	.
.	.	.	.	.	48dd\	.	.	.	.	.	.	.	.	.	.	.	.	.	.
.	.	.	.	.	48cc#X\JJJ	.	.	.	.	.	.	.	.	.	.	.	.	.	.
8c\	.	.	16g/	.	8dd\L	.	.	.	.	.	.	.	.	.	.	.	.	.	.
.	.	.	16a/	.	.	.	.	.	.	.	.	.	.	.	.	.	.	.	.
8c\	.	.	16g/	.	8ff#\	.	.	.	.	.	.	.	.	.	.	.	.	.	.
.	.	.	16a/	.	.	.	.	.	.	.	.	.	.	.	.	.	.	.	.
8c\	.	.	16g/	.	8dd\	.	4c\	-los	.	4A\	-lis	.	4f#\	-lis	4dd\	-lis	-ne	.	.
.	.	.	16a/	.	.	.	.	.	.	.	.	.	.	.	.	.	.	.	.
8c\J	.	.	16g/	.	8ff#\J	.	.	.	.	.	.	.	.	.	.	.	.	.	.
.	.	.	16a/JJ	.	.	.	.	.	.	.	.	.	.	.	.	.	.	.	.
=46	=46	=46	=46	=46	=46	=46	=46	=46	=46	=46	=46	=46	=46	=46	=46	=46	=46	=46	=46
8B\L	3	.	16f#/LL	.	8.dd#X\L	.	4B\	hae-	.	4B\	he-	.	4f#\	he-	4dd#X\	he-	qui-	2.ryy	2.ryy
.	.	.	16b/	.	.	.	.	.	.	.	.	.	.	.	.	.	.	.	.
8B\	.	.	16f#/	.	.	.	.	.	.	.	.	.	.	.	.	.	.	.	.
.	.	.	16b/	.	48ee\LL	.	.	.	.	.	.	.	.	.	.	.	.	.	.
.	.	.	.	.	48dd#\	.	.	.	.	.	.	.	.	.	.	.	.	.	.
!	!	!	!	!	!LO:SIC:v:s=48cc#\JJJ	!	!	!	!	!	!	!	!	!	!	!	!	!	!
.	.	.	.	.	48cc\JJJ	.	.	.	.	.	.	.	.	.	.	.	.	.	.
8B\	.	.	16f#/	.	8dd#\L	.	4B\	-re-	.	4B\	-re-	.	4f#\	-re-	4dd#\	-re-	-a	.	.
.	.	.	16b/	.	.	.	.	.	.	.	.	.	.	.	.	.	.	.	.
8B\	.	.	16f#/	.	8ff#\	.	.	.	.	.	.	.	.	.	.	.	.	.	.
.	.	.	16b/	.	.	.	.	.	.	.	.	.	.	.	.	.	.	.	.
8B\	.	.	16f#/	.	8dd#\	.	4B\	-di-	.	4B\	-di-	.	4f#\	-di-	4dd#\	-di-	e-	.	.
.	.	.	16b/	.	.	.	.	.	.	.	.	.	.	.	.	.	.	.	.
8B\J	.	.	16f#/	.	8ff#\J	.	.	.	.	.	.	.	.	.	.	.	.	.	.
.	.	.	16b/JJ	.	.	.	.	.	.	.	.	.	.	.	.	.	.	.	.
!	!	!	!	!	!	!	!	!	!	!LO:LB:g=original	!	!	!	!	!	!	!	!	!
=47	=47	=47	=47	=47	=47	=47	=47	=47	=47	=47	=47	=47	=47	=47	=47	=47	=47	=47	=47
!	!	!	!	!	!	!	!	!	!	!LO:N:vis=2.	!	!	!	!	!	!	!	!	!
8B\L	6 4	.	16g/LL	.	8ee\L	.	2B\	-ta-	.	2B\	-ta-	.	2g\	-ta-	2ee\	-ta-	-go	2.ryy	2.ryy
.	.	.	16b/	.	.	.	.	.	.	.	.	.	.	.	.	.	.	.	.
8B\	.	.	16g/	.	16dd#X\L	.	.	.	.	.	.	.	.	.	.	.	.	.	.
.	.	.	16b/	.	16ee\JJ	.	.	.	.	.	.	.	.	.	.	.	.	.	.
8B\	.	.	16g/	.	8b\L	.	.	.	.	.	.	.	.	.	.	.	.	.	.
.	.	.	16b/	.	.	.	.	.	.	.	.	.	.	.	.	.	.	.	.
8B\	.	.	16g/	.	8ee\	.	.	.	.	.	.	.	.	.	.	.	.	.	.
.	.	.	16b/	.	.	.	.	.	.	.	.	.	.	.	.	.	.	.	.
8B\	.	.	16g/	.	8gg\	.	4B\	-tem	.	4B\	-tem	.	4g\	-tem	4ee\	-tem	Ser-	.	.
.	.	.	16b/	.	.	.	.	.	.	.	.	.	.	.	.	.	.	.	.
8B\J	.	.	16g/	.	8ee\J	.	.	.	.	.	.	.	.	.	.	.	.	.	.
.	.	.	16b/JJ	.	.	.	.	.	.	.	.	.	.	.	.	.	.	.	.
*Xtremolo	*	*	*Xtremolo	*	*	*	*	*	*	*	*	*	*	*	*	*	*	*	*
=48	=48	=48	=48	=48	=48	=48	=48	=48	=48	=48	=48	=48	=48	=48	=48	=48	=48	=48	=48
4B\	.	.	8g/L	.	8.ee\L	.	8B\	gen-	.	8B\	gen-	.	8g\	gen-	8ee\	gen-	-vus	2.ryy	2.ryy
.	.	.	16f#/L	.	.	.	8B\	-ti-	.	8B\	-ti-	.	8g\	-ti-	8ee\	-ti-	tu-	.	.
.	.	.	16g/JJ	.	32dd#X\LL	.	.	.	.	.	.	.	.	.	.	.	.	.	.
.	.	.	.	.	32ee\JJJ	.	.	.	.	.	.	.	.	.	.	.	.	.	.
4BB/	#	.	8f#/L	.	16dd#\LL	.	4BB/	-um	.	4B\	-um	.	4f#\	-um	4dd#X\	-um	-us	.	.
.	.	.	.	.	16b\	.	.	.	.	.	.	.	.	.	.	.	.	.	.
!	!	!	!	!	!LO:SIC:v:s=16cc#\	!	!	!	!	!	!	!	!	!	!	!	!	!	!
.	.	.	8f#/J	.	16cc\	.	.	.	.	.	.	.	.	.	.	.	.	.	.
.	.	.	.	.	16dd#\JJ	.	.	.	.	.	.	.	.	.	.	.	.	.	.
4r	.	.	16g/LL	.	16ee\LL	.	4r	.	.	4r	.	.	4r	.	4r	.	.	.	.
.	.	.	16a/	.	16ff#\	.	.	.	.	.	.	.	.	.	.	.	.	.	.
.	.	.	16b/	.	16gg\	.	.	.	.	.	.	.	.	.	.	.	.	.	.
.	.	.	16g/JJ	.	16ee\JJ	.	.	.	.	.	.	.	.	.	.	.	.	.	.
!	!	!	!	!	!	!	!LO:LB:g=original	!	!	!	!	!	!	!	!	!	!	!	!
=49	=49	=49	=49	=49	=49	=49	=49	=49	=49	=49	=49	=49	=49	=49	=49	=49	=49	=49	=49
!LO:TX:t=P:problem=mixed beam	!	!	!	!	!	!	!	!	!	!	!	!	!	!	!	!	!	!	!
8B\L	#	.	8f#/	.	8dd#X\	.	8B\	o-	.	8B\	o-	.	8f#\	o-	8dd#X\	o-	e-	2.ryy	2.ryy
8BB/J	.	.	4f#/	.	4dd#\	.	8B\	-pe-	.	8B\	-pe-	.	8f#\	-pe-	8dd#\	-pe-	-go	.	.
8B\L	.	.	.	.	.	.	8B\	-ra	.	8B\	-ra	.	8f#\	-ra	8dd#\	-ra	Ser-	.	.
!LO:SIC:v:s=8c#\	!	!	!	!	!	!	!LO:SIC:v:s=8c#\	!	!	!	!LO:MO:mod=ma-	!	!	!	!	!	!	!	!
8c\	.	.	4f#/	.	4dd#\	.	8c\	ma-	.	8B\	Ma-	.	8f#\	ma-	8dd#\	ma-	-vus	.	.
!	!	!	!	!	!	!	!	!	!	!	!	!	!LO:LB:g=original	!	!	!	!	!	!
8d#X\	.	.	.	.	.	.	8d#X\	-nu-	.	8B\	-nu-	.	8f#\	-nu-	8dd#\	-nu-	tu-	.	.
8B\J	.	.	8f#/	.	8dd#\	.	8B\	-um	.	8B\	-um	.	8f#\	-um	8dd#\	-um	-us	.	.
!	!	!	!	!	!LO:LB:g=original	!	!	!	!	!	!	!	!	!	!LO:LB:g=original	!	!	!	!
=50	=50	=50	=50	=50	=50	=50	=50	=50	=50	=50	=50	=50	=50	=50	=50	=50	=50	=50	=50
8e\L	.	.	8g/	.	8ee\	.	8e\L	e-	.	4B\	e-	.	4g\	e-	4ee\	e-	e-	2.ryy	2.ryy
8d\	.	.	4g/	.	4ee\	.	8d\J	.	.	.	.	.	.	.	.	.	.	.	.
8c\	.	.	.	.	.	.	8c\	-jus	.	8B\	-jus	.	8g\	-jus	8ee\	-jus	-go	.	.
!	!	!	!	!	!	!	!	!	!	!	!	!	!	!LO:MO:mod=Ve-	!	!	!	!	!
8B\	.	.	4g/	.	4ee\	.	8B\	Ve-	.	8B\	Ve-	.	8g\	ve-	8ee\	Ve-	Ser-	.	.
8A\	.	.	.	.	.	.	8A\	-ri-	.	8d 8B\	-ri-	.	8g\	-ri-	8ee\	-ri-	-vum	.	.
8G\J	.	.	8b/	.	8ee\	.	8G\	-tas	.	8d 8B\	-tas	.	8b\	-tas	8ee\	-tas	tu-	.	.
!LO:LB:g=original	!	!	!	!	!	!	!	!	!	!LO:LB:g=original	!	!	!	!	!	!	!	!	!
=51	=51	=51	=51	=51	=51	=51	=51	=51	=51	=51	=51	=51	=51	=51	=51	=51	=51	=51	=51
!LO:TX:t=P:problem=mixed beam	!	!	!	!	!	!	!	!	!	!	!	!	!	!	!	!	!	!	!
8A\L	6	.	8cc/L	.	16ff#\LL	.	8A\	et	.	8c\	et	.	8a\	et	8ff#\	et	-us	2.ryy	2.ryy
.	.	.	.	.	16aa\	.	.	.	.	.	.	.	.	.	.	.	.	.	.
8A\	.	.	16b/L	.	16gg\	.	8A\	Ju-	.	8c\	Ju-	.	8a\	Ju-	8ff#\	Ju-	et	.	.
.	.	.	16a/JJ	.	16ff#\JJ	.	.	.	.	.	.	.	.	.	.	.	.	.	.
!	!	!	!LO:LB:g=original	!	!	!	!	!	!	!	!	!	!	!	!	!	!	!	!
8B\	4	.	8g/L	.	8ee\L	.	4B\	-di-	.	4B\	-di-	.	4g\	-di-	4ee\	-di-	fi-	.	.
8B\	.	.	8e/	.	8g\	.	.	.	.	.	.	.	.	.	.	.	.	.	.
8BB/	#	.	8d#X/	.	8f#\	.	4BB/	-ci-	.	4B\	-ci-	.	4f#\	-ci-	4dd#X\	-ci-	-li-	.	.
8BB/J	.	.	8f#/J	.	8dd#X\J	.	.	.	.	.	.	.	.	.	.	.	.	.	.
=52	=52	=52	=52	=52	=52	=52	=52	=52	=52	=52	=52	=52	=52	=52	=52	=52	=52	=52	=52
!LO:TX:a:i:t=Solo	!	!	!	!	!	!	!	!	!	!	!	!	!	!	!	!	!	!	!
4E\	.	.	16g/LL	.	16ee\LL	.	4E\	-um	.	4B\	-um	.	4g\	-um	4ee\	-um	-us	2.ryy	2.ryy
.	.	.	16a/	.	16ff#\	.	.	.	.	.	.	.	.	.	.	.	.	.	.
.	.	.	16g/	.	16ee\	.	.	.	.	.	.	.	.	.	.	.	.	.	.
.	.	.	16f#/JJ	.	16dd#X\JJ	.	.	.	.	.	.	.	.	.	.	.	.	.	.
!	!	!LO:DY:a	!	!	!	!	!	!	!	!	!	!	!	!	!	!	!	!	!
4r	.	p	8g/L	.	8ee\L	.	4r	.	.	4r	.	.	4r	.	4r	.	.	.	.
.	.	.	8g/	.	8b\	.	.	.	.	.	.	.	.	.	.	.	.	.	.
!	!	!	!	!	!LO:SIC:v:s=8cc#\	!	!	!	!	!	!	!	!	!	!	!	!	!	!
4r	.	.	8a/	.	8cc\	.	4r	.	.	4r	.	.	4r	.	4r	.	.	.	.
.	.	.	8f#/J	.	8dd#\J	.	.	.	.	.	.	.	.	.	.	.	.	.	.
!	!	!	!	!	!	!	!LO:LB:g=original	!	!	!	!	!	!	!	!	!	!	!	!
=53	=53	=53	=53	=53	=53	=53	=53	=53	=53	=53	=53	=53	=53	=53	=53	=53	=53	=53	=53
4E\	.	.	4g/	.	8ee\L	.	8r	.	.	0.r	.	.	0.r	.	0.r	.	.	2.ryy	2.ryy
.	.	.	.	.	8b\J	.	16E\LL	Fi-	Vo-	.	.	.	.	.	.	.	.	.	.
.	.	.	.	.	.	.	16D#X\JJ	.	-ta	.	.	.	.	.	.	.	.	.	.
4E\	.	.	4g/	.	4b\	.	8E\L	-de-	me-	.	.	.	.	.	.	.	.	.	.
.	.	.	.	.	.	.	8F#\J	.	.	.	.	.	.	.	.	.	.	.	.
4r	.	.	4r	.	4r	.	8G\	-li-	.	.	.	.	.	.	.	.	.	.	.
.	.	.	.	.	.	.	8A\	-a	-a	.	.	.	.	.	.	.	.	.	.
=54	=54	=54	=54	=54	=54	=54	=54	=54	=54	=54	=54	=54	=54	=54	=54	=54	=54	=54	=54
!	!	!	!	!LO:DY:a	!	!	!	!	!	!	!	!	!	!	!	!	!	!	!
8r	.	.	4r	p	8r	.	4.B\	O-	Do-	.	.	.	.	.	.	.	.	2.ryy	2.ryy
16D/LL	6 5	.	.	.	16f#/LL	p	.	.	.	.	.	.	.	.	.	.	.	.	.
16C#X/JJ	.	.	.	.	16e/JJ	.	.	.	.	.	.	.	.	.	.	.	.	.	.
8D/L	.	.	4B/	.	8f#/L	.	.	.	.	.	.	.	.	.	.	.	.	.	.
8BB/J	.	.	.	.	8a/	.	8A\	-mni-	-mi-	.	.	.	.	.	.	.	.	.	.
!LO:TX:t=P:problem=mixed beam	!	!	!	!	!	!	!	!	!	!	!	!	!	!	!	!	!	!	!
8E\L	.	.	4B/	.	8g/	.	4G\	-a	-no	.	.	.	.	.	.	.	.	.	.
8EE/J	.	.	.	.	8e/J	.	.	.	.	.	.	.	.	.	.	.	.	.	.
=55	=55	=55	=55	=55	=55	=55	=55	=55	=55	=55	=55	=55	=55	=55	=55	=55	=55	=55	=55
4AA/	6	.	4c/	.	4f#/	.	8G\L	man-	red-	.	.	.	.	.	.	.	.	2.ryy	2.ryy
.	.	.	.	.	.	.	16B\L	.	-dam	.	.	.	.	.	.	.	.	.	.
.	.	.	.	.	.	.	16c\JJ	.	.	.	.	.	.	.	.	.	.	.	.
4BB/	#	.	4B/	.	8g/L	.	8B\L	-da-	in	.	.	.	.	.	.	.	.	.	.
.	.	.	.	.	8f#/	.	8A\J	.	con-	.	.	.	.	.	.	.	.	.	.
4BB/	.	.	4B/	.	8e/	.	8G\L	-ta	-spe-	.	.	.	.	.	.	.	.	.	.
.	.	.	.	.	8d#X/J	.	8F#\J	.	-ctu	.	.	.	.	.	.	.	.	.	.
!	!	!	!	!	!LO:LB:g=original	!	!	!	!	!	!	!	!	!	!	!	!	!	!
=56	=56	=56	=56	=56	=56	=56	=56	=56	=56	=56	=56	=56	=56	=56	=56	=56	=56	=56	=56
8E\L	.	.	8G/L	.	8e/L	.	4E\	e-	o-	.	.	.	.	.	.	.	.	2.ryy	2.ryy
16E\L	.	.	8B/J	.	16e/L	.	.	.	.	.	.	.	.	.	.	.	.	.	.
16D#X\JJ	.	.	.	.	16f#/JJ	.	.	.	.	.	.	.	.	.	.	.	.	.	.
8E\L	.	.	8g/L	.	8g/L	.	4E\	-ius	-mnis	.	.	.	.	.	.	.	.	.	.
8F#\	.	.	8a/	.	8a/	.	.	.	.	.	.	.	.	.	.	.	.	.	.
8G\	.	.	8b/	.	8b/	.	4r	.	.	.	.	.	.	.	.	.	.	.	.
8F#\J	.	.	8a/J	.	8a/J	.	.	.	.	.	.	.	.	.	.	.	.	.	.
!	!	!	!	!	!	!	!LO:LB:g=original	!	!	!	!	!	!	!	!	!	!	!	!
=57	=57	=57	=57	=57	=57	=57	=57	=57	=57	=57	=57	=57	=57	=57	=57	=57	=57	=57	=57
8E\L	.	.	8g/L	.	8g/L	.	2E\	Con-	po-	0.r	.	.	0.r	.	0.r	.	.	2.ryy	2.ryy
8E\	.	.	8e/	.	8g/	.	.	.	.	.	.	.	.	.	.	.	.	.	.
8E\	.	.	8e/	.	8g/	.	.	.	.	.	.	.	.	.	.	.	.	.	.
8E\	.	.	8e/	.	8g/	.	.	.	.	.	.	.	.	.	.	.	.	.	.
8Dn\	4 2_	.	8e/	.	8g#X/	.	8F#\L	-fir-	-pu-	.	.	.	.	.	.	.	.	.	.
8D\J	# _	.	8e/J	.	8g#/J	.	8G#X\J	.	-li	.	.	.	.	.	.	.	.	.	.
!LO:LB:g=original	!	!	!	!	!	!	!	!	!	!	!	!	!	!	!	!	!	!	!
=58	=58	=58	=58	=58	=58	=58	=58	=58	=58	=58	=58	=58	=58	=58	=58	=58	=58	=58	=58
*	*	*	*tremolo	*	*	*	*	*	*	*	*	*	*	*	*	*	*	*	*
!	!	!	!	!	!	!	!LO:SIC:v:s=8G#\L	!	!	!	!	!	!	!	!	!	!	!	!
8C/L	6	.	8e/L	.	8a/L	.	8G\L	-ma-	e-	.	.	.	.	.	.	.	.	2.ryy	2.ryy
8C/	.	.	8e/	.	8a/	.	8A\J	.	.	.	.	.	.	.	.	.	.	.	.
8C/	.	.	8e/	.	8a/	.	4A\	-ta	-ius	.	.	.	.	.	.	.	.	.	.
8C/	.	.	8e/	.	8a/	.	.	.	.	.	.	.	.	.	.	.	.	.	.
8C#X/	5	.	8e/	.	8gn/	.	8r	.	.	.	.	.	.	.	.	.	.	.	.
8C#/J	n	.	8e/J	.	8g/J	.	8Gn\	in	in	.	.	.	.	.	.	.	.	.	.
!	!	!	!LO:LB:g=original	!	!	!	!	!	!	!	!	!	!	!	!	!	!	!	!
=59	=59	=59	=59	=59	=59	=59	=59	=59	=59	=59	=59	=59	=59	=59	=59	=59	=59	=59	=59
*	*	*	*	*	*tremolo	*	*	*	*	*	*	*	*	*	*	*	*	*	*
8D/L	3_	.	8dn/L	.	8f#/L	.	4F#\	Se-	a-	.	.	.	.	.	.	.	.	2.ryy	2.ryy
8D/	.	.	8d/	.	8f#/	.	.	.	.	.	.	.	.	.	.	.	.	.	.
8D/	.	.	8d/	.	8f#/	.	4D\	-cu-	-tri-	.	.	.	.	.	.	.	.	.	.
8D/	.	.	8d/	.	8f#/	.	.	.	.	.	.	.	.	.	.	.	.	.	.
8Cn/	x	.	8d/	.	8f#/	.	8E\L	-lum	-is	.	.	.	.	.	.	.	.	.	.
8C/J	.	.	8d/J	.	8f#/J	.	8F#\J	.	.	.	.	.	.	.	.	.	.	.	.
=60	=60	=60	=60	=60	=60	=60	=60	=60	=60	=60	=60	=60	=60	=60	=60	=60	=60	=60	=60
*tremolo	*	*	*	*	*	*	*	*	*	*	*	*	*	*	*	*	*	*	*
8BB/L	6	.	8d/L	.	8g/L	.	8F#\	Se-	Do-	.	.	.	.	.	.	.	.	2.ryy	2.ryy
8BB/	.	.	8d/	.	8g/	.	8G\	-cu-	.	.	.	.	.	.	.	.	.	.	.
8BB/	.	.	8d/	.	8g/	.	4G\	-li	-mus	.	.	.	.	.	.	.	.	.	.
8BB/	.	.	8d/	.	8g/	.	.	.	.	.	.	.	.	.	.	.	.	.	.
8BB/	.	.	8d/	.	8g/	.	8r	.	.	.	.	.	.	.	.	.	.	.	.
8BB/J	.	.	8d/J	.	8g/J	.	8G\	fac-	Do-	.	.	.	.	.	.	.	.	.	.
*Xtremolo	*	*	*Xtremolo	*	*	*	*	*	*	*	*	*	*	*	*	*	*	*	*
!	!	!	!	!	!	!	!LO:LB:g=original	!	!	!	!	!	!	!	!	!	!	!	!
=61	=61	=61	=61	=61	=61	=61	=61	=61	=61	=61	=61	=61	=61	=61	=61	=61	=61	=61	=61
8C/L	6	.	8e/L	.	8a/L	.	16B\LL	-ta	-mi-	0.r	.	.	0.r	.	0.r	.	.	2.ryy	2.ryy
.	.	.	.	.	.	.	16A\JJ	.	.	.	.	.	.	.	.	.	.	.	.
8C/	.	.	8e/	.	8a/	.	16G\LL	in	-ni	.	.	.	.	.	.	.	.	.	.
.	.	.	.	.	.	.	16A\JJ	.	.	.	.	.	.	.	.	.	.	.	.
8C/	.	.	8e/	.	8a/	.	4.c\	ve-	in	.	.	.	.	.	.	.	.	.	.
8C/	.	.	8e/	.	8a/	.	.	.	.	.	.	.	.	.	.	.	.	.	.
8D/	3_	.	8f#/	.	8a/	.	.	.	.	.	.	.	.	.	.	.	.	.	.
8D/J	.	.	8f#/J	.	8a/J	.	16A\LL	-ri-	me-	.	.	.	.	.	.	.	.	.	.
.	.	.	.	.	.	.	16G\JJ	.	.	.	.	.	.	.	.	.	.	.	.
=62	=62	=62	=62	=62	=62	=62	=62	=62	=62	=62	=62	=62	=62	=62	=62	=62	=62	=62	=62
*tremolo	*	*	*	*	*	*	*	*	*	*	*	*	*	*	*	*	*	*	*
8G\L	x	.	8g/L	.	8b\L	.	8F#\L	-ta-	-di-	.	.	.	.	.	.	.	.	2.ryy	2.ryy
8G\	.	.	8g/J	.	8b\	.	8G\J	.	.	.	.	.	.	.	.	.	.	.	.
*	*	*	*tremolo	*	*	*	*	*	*	*	*	*	*	*	*	*	*	*	*
8G\	.	.	8d/L	.	8b\	.	4.G\	-te	-o	.	.	.	.	.	.	.	.	.	.
8G\	.	.	8d/	.	8b\	.	.	.	.	.	.	.	.	.	.	.	.	.	.
8G\	.	.	8d/	.	8b\	.	.	.	.	.	.	.	.	.	.	.	.	.	.
8G\J	.	.	8d/J	.	8b\J	.	16A\LL	et	tui	.	.	.	.	.	.	.	.	.	.
.	.	.	.	.	.	.	16B\JJ	.	.	.	.	.	.	.	.	.	.	.	.
*Xtremolo	*	*	*Xtremolo	*	*Xtremolo	*	*	*	*	*	*	*	*	*	*	*	*	*	*
=63	=63	=63	=63	=63	=63	=63	=63	=63	=63	=63	=63	=63	=63	=63	=63	=63	=63	=63	=63
!LO:TX:t=P:problem=mixed beam	!	!	!	!	!	!	!	!	!	!	!	!	!	!	!	!	!	!	!
8c\L	6	.	8e/L	.	8cc\L	.	8c\	e-	Je-	.	.	.	.	.	.	.	.	2.ryy	2.ryy
8c\	.	.	8a/J	.	16ee\L	.	16B\LL	-qui-	.	.	.	.	.	.	.	.	.	.	.
.	.	.	.	.	16cc\JJ	.	16c\JJ	.	.	.	.	.	.	.	.	.	.	.	.
8d\	4	.	4g/	.	4b\	.	4d\	-ta-	-ru-	.	.	.	.	.	.	.	.	.	.
8d\	.	.	.	.	.	.	.	.	.	.	.	.	.	.	.	.	.	.	.
8D/	3	.	4f#/	.	4a\	.	4D\	.	-sa-	.	.	.	.	.	.	.	.	.	.
8D/J	.	.	.	.	.	.	.	.	.	.	.	.	.	.	.	.	.	.	.
!	!	!	!	!	!LO:LB:g=original	!	!	!	!	!	!	!	!	!	!	!	!	!	!
=64	=64	=64	=64	=64	=64	=64	=64	=64	=64	=64	=64	=64	=64	=64	=64	=64	=64	=64	=64
4G\	.	.	8g/L	.	8b\L	.	4G\	-te	-lem	.	.	.	.	.	.	.	.	2.ryy	2.ryy
.	.	.	8b/	.	8dd\|	.	.	.	.	.	.	.	.	.	.	.	.	.	.
!	!	!	!	!LO:HP:t=Cres	!	!	!	!	!	!	!	!	!	!	!	!	!	!	!
4r	.	.	8cc/	<	8ee\|	.	4r	.	.	.	.	.	.	.	.	.	.	.	.
.	.	.	8b/	.	8dd\|	.	.	.	.	.	.	.	.	.	.	.	.	.	.
4r	.	.	8cc/	.	8ee\|	.	4r	.	.	.	.	.	.	.	.	.	.	.	.
.	.	.	8a/J	.	8ff#\J|	.	.	.	.	.	.	.	.	.	.	.	.	.	.
!	!	!	!	!	!	!	!LO:LB:g=original	!	!	!	!	!	!	!	!	!	!	!	!
=65	=65	=65	=65	=65	=65	=65	=65	=65	=65	=65	=65	=65	=65	=65	=65	=65	=65	=65	=65
!LO:TX:a:i:t=Tutti	!	!	!	!LO:DY:a	!	!	!	!	!	!	!	!	!	!	!	!	!	!	!
4G\	.	.	8b\L|	f	8gg\L|	.	4G\	Re-	.	4d\	Re-	.	4g\	Re-	4b\	Re-	in	2.ryy	2.ryy
.	.	.	8dd\|	.	8ff#\|	.	.	.	.	.	.	.	.	.	.	.	.	.	.
4GG/	.	.	8cc\|	.	8ee\|	.	4G\	-dem-	.	4d\	-dem-	.	4g\	-dem-	4b\	-dem-	a-	.	.
.	.	.	8b\J|	.	8dd\|	.	.	.	.	.	.	.	.	.	.	.	.	.	.
!	!	!	!	!	!	!	!	!	!	!	!LO:MO:mod=-pti-	!	!	!LO:MO:mod=-pti-	!	!LO:MO:mod=-pti-	!	!	!
4G\	.	.	8a/L	.	8cc\|	.	4G\	-pti-	.	4d\	-ti-	.	4g\	-ti-	4b\	-ci-	-tris	.	.
.	.	.	8g/J	.	8b\J|	.	.	.	.	.	.	.	.	.	.	.	.	.	.
=66	=66	=66	=66	=66	=66	=66	=66	=66	=66	=66	=66	=66	=66	=66	=66	=66	=66	=66	=66
4d\	4	.	8g/L	.	8b\L	.	4d\	-o-	.	4d\	-o-	.	4g\	-o-	4b\	-o-	Do-	2.ryy	2.ryy
.	.	.	(16a/L	.	(16cc\L	.	.	.	.	.	.	.	.	.	.	.	.	.	.
!	!	!	!LO:TX:b:t=g	!	!	!	!	!	!	!	!	!	!	!	!	!	!	!	!
.	.	.	16g/JJ)	.	16b\JJ)	.	.	.	.	.	.	.	.	.	.	.	.	.	.
4D/	3	.	8f#/L	.	8a\L	.	4D\	-nem	.	4d\	-nem	.	4f#\	-nem	4a\	-nem	-mus	.	.
.	.	.	16g/L	.	16b\L	.	.	.	.	.	.	.	.	.	.	.	.	.	.
.	.	.	16a/JJ	.	16cc\JJ	.	.	.	.	.	.	.	.	.	.	.	.	.	.
4r	.	.	16b\LL	.	16dd\LL	.	4r	.	.	4r	.	.	4r	.	4r	.	.	.	.
.	.	.	16cc\	.	16ee\	.	.	.	.	.	.	.	.	.	.	.	.	.	.
.	.	.	16dd\	.	16ff#\	.	.	.	.	.	.	.	.	.	.	.	.	.	.
.	.	.	16ee\JJ	.	16gg\JJ	.	.	.	.	.	.	.	.	.	.	.	.	.	.
!LO:LB:g=original	!	!	!LO:LB:g=original	!	!	!	!	!	!	!	!	!	!LO:LB:g=original	!	!LO:LB:g=original	!	!	!	!
=67	=67	=67	=67	=67	=67	=67	=67	=67	=67	=67	=67	=67	=67	=67	=67	=67	=67	=67	=67
4D\	.	.	8ff#\L|	.	8aa\L|	.	8D\	mi-	.	8d\	mi-	.	8a\	mi-	8cc\	mi-	Do-	2.ryy	2.ryy
.	.	.	8ee\|	.	8gg\|	.	8D\	-ſit	.	8d\	-ſit	.	8a\	-sit	8cc\	-sit	-mi-	.	.
4F#\	6 5	.	8dd\|	.	8ff#\|	.	4F#\	po-	.	4d\	po-	.	4a\	po-	4cc\	po-	-ni	.	.
.	.	.	8cc\|	.	8ee\|	.	.	.	.	.	.	.	.	.	.	.	.	.	.
*	*	*	*	*	*	*	*	*	*	*	*	*	*	*	*	*	*ij	*	*
!	!	!	!	!	!	!	!	!	!	!LO:LB:g=original	!	!	!	!	!	!	!	!	!
4F#\	.	.	8b\|	.	8dd\|	.	8F#\	-pu-	.	8d\	-pu-	.	8a\	-pu-	8cc\	-pu-	Do-	.	.
.	.	.	8a\J|	.	8cc\J|	.	8F#\	-lo	.	8d\	-lo	.	8a\	-lo	8cc\	-lo	-mi-	.	.
=68	=68	=68	=68	=68	=68	=68	=68	=68	=68	=68	=68	=68	=68	=68	=68	=68	=68	=68	=68
!	!	!	!	!	!	!	!	!LO:MO:mod=su-	!	!	!	!	!	!	!	!	!	!	!
4G\	4	.	8a/L	.	8cc\L	.	4G\	Su-	.	4d\	su-	.	4a\	su-	4cc\	su-	-ni	2.ryy	2.ryy
*	*	*	*	*	*	*	*	*	*	*	*	*	*	*	*	*	*Xij	*	*
.	.	.	16b/L	.	16dd\L	.	.	.	.	.	.	.	.	.	.	.	.	.	.
.	.	.	16a/JJ	.	16cc\JJ	.	.	.	.	.	.	.	.	.	.	.	.	.	.
4GG/	3	.	16g/LL	.	16b\LL	.	4G\	-o	.	4d\	-o	.	4g\	-o	4b\	-o	.	.	.
.	.	.	16f#/	.	16a\	.	.	.	.	.	.	.	.	.	.	.	.	.	.
.	.	.	16g/	.	16b\	.	.	.	.	.	.	.	.	.	.	.	.	.	.
.	.	.	16a/JJ	.	16cc\JJ	.	.	.	.	.	.	.	.	.	.	.	.	.	.
4r	.	.	8b/L	.	8dd\L	.	4r	.	.	4r	.	.	4r	.	4r	.	.	.	.
.	.	.	8b/J	.	8dd\J	.	.	.	.	.	.	.	.	.	.	.	.	.	.
!	!	!	!	!	!LO:LB:g=original	!	!	!	!	!	!	!	!	!	!	!	!	!	!
=69	=69	=69	=69	=69	=69	=69	=69	=69	=69	=69	=69	=69	=69	=69	=69	=69	=69	=69	=69
4A\	6	.	4.a/	.	(8dd\L	.	(4A\	man-	.	4e\	man-	.	4e\	man-	8dd\L	man-	in	2.ryy	2.ryy
.	.	.	.	.	8cc#X\J)	.	.	.	.	.	.	.	.	.	8cc#X\J	.	me-	.	.
4F#\	6 n5r	.	.	.	8ccn\L|	.	4F#\)	.	.	4d\	-da-	.	4a\	-da-	4ccn\	-da-	-di-	.	.
.	.	.	(16b/LL	.	(16dd\L	.	.	.	.	.	.	.	.	.	.	.	.	.	.
.	.	.	16a/JJ)	.	16cc\JJ)	.	.	.	.	.	.	.	.	.	.	.	.	.	.
4G\	.	.	8g/L|	.	8b\L|	.	4G\	-da-	.	4d\	-vit	.	4g\	-vit	4b\	-vit	-o	.	.
.	.	.	8b/J|	.	8dd\J|	.	.	.	.	.	.	.	.	.	.	.	.	.	.
!	!	!	!	!	!	!	!LO:LB:g=original	!	!	!	!	!	!	!	!	!	!	!	!
=70	=70	=70	=70	=70	=70	=70	=70	=70	=70	=70	=70	=70	=70	=70	=70	=70	=70	=70	=70
4A\	.	.	4.a/	.	8dd\L	.	4A\	-vit	.	(4e\	in	.	4e\	in	8dd\L	in	tu-	2.ryy	2.ryy
.	.	.	.	.	8cc#X\J	.	.	.	.	.	.	.	.	.	8cc#X\J	.	.	.	.
!	!	!	!	!	!	!	!	!	!	!	!	!	!	!	!	!LO:MO:mod=ae-	!	!	!
4F#\	.	.	.	.	8ccn\L|	.	4F#\	in	.	4d\)	.	.	4a\	.	(4ccn\	e-	.	.	.
.	.	.	(16b/LL	.	(16dd\L	.	.	.	.	.	.	.	.	.	.	.	.	.	.
.	.	.	16a/JJ)	.	16cc\JJ)	.	.	.	.	.	.	.	.	.	.	.	.	.	.
!	!	!	!	!	!	!	!	!	!	!	!LO:MO:mod=ae-	!	!	!LO:MO:mod=ae-	!	!	!	!	!
4G\	.	.	8g/L|	.	8b\L	.	4G\	ae-	.	4d\	e-	.	4g\	e-	4b\)	.	-i	.	.
.	.	.	8b/J|	.	8gg\J	.	.	.	.	.	.	.	.	.	.	.	.	.	.
=71	=71	=71	=71	=71	=71	=71	=71	=71	=71	=71	=71	=71	=71	=71	=71	=71	=71	=71	=71
4d\	3	.	4.a/	.	16gg\LL	.	4d\	-ter-	.	4d\	-ter-	.	4f#\	-ter-	4a\	-ter-	tu-	2.ryy	2.ryy
.	.	.	.	.	16ff#\	.	.	.	.	.	.	.	.	.	.	.	.	.	.
.	.	.	.	.	16ee\	.	.	.	.	.	.	.	.	.	.	.	.	.	.
.	.	.	.	.	16ff#\JJ	.	.	.	.	.	.	.	.	.	.	.	.	.	.
4c\	.	.	.	.	8dd\L	.	4c\	-num	.	4d\	-num	.	4f#\	-num	4a\	-num	.	.	.
.	.	.	8dd\L	.	8ff#\J	.	.	.	.	.	.	.	.	.	.	.	.	.	.
4B\	6	.	8b\	.	8dd\L	.	8B\	te-	.	8d\	teſ-	.	8g\	te-	8b\	te-	.	.	.
.	.	.	8dd\J	.	16gg\L	.	8B\	-sta-	.	8d\	-ta-	.	8g\	-sta-	8b\	-sta-	-i	.	.
.	.	.	.	.	16ffn\JJ	.	.	.	.	.	.	.	.	.	.	.	.	.	.
!	!	!	!	!	!	!	!	!	!	!LO:LB:g=original	!	!	!LO:LB:g=original	!	!LO:LB:g=original	!	!	!	!
=72	=72	=72	=72	=72	=72	=72	=72	=72	=72	=72	=72	=72	=72	=72	=72	=72	=72	=72	=72
4c\	6	.	8cc\L	.	8ee\L	.	8c\	-men-	.	8e\	-men-	.	8a\	-men-	8cc\	-men-	Je-	2.ryy	2.ryy
.	.	.	16b\L	.	16dd\L	.	8c\	-tum	.	8e\	-tum	.	8a\	-tum	8cc\	-tum	.	.	.
.	.	.	16a\JJ	.	16cc\JJ	.	.	.	.	.	.	.	.	.	.	.	.	.	.
!	!	!	!	!	!	!	!	!LO:MO:mod=su-	!	!	!	!	!	!	!	!LO:MO:mod=su-	!	!	!
4d\	4	.	8g/L	.	8b\L	.	4d\	Su-	.	2d\	su-	.	4g\	su-	4b\	Su-	-ru-	.	.
.	.	.	8b/	.	8gg\	.	.	.	.	.	.	.	.	.	.	.	.	.	.
4D/	3	.	8f#/	.	8a\	.	4D\	.	.	.	.	.	4f#\	.	4a\	.	-sa-	.	.
.	.	.	8a/J	.	8ff#\J	.	.	.	.	.	.	.	.	.	.	.	.	.	.
!	!	!	!LO:LB:g=original	!	!	!	!	!	!	!	!	!	!	!	!	!	!	!	!
=73	=73	=73	=73	=73	=73	=73	=73	=73	=73	=73	=73	=73	=73	=73	=73	=73	=73	=73	=73
4G\	.	.	8b/L	.	8gg\L	.	4G\	-um	.	4d\	-um	.	4g\	-um	4b\	-um	-lem	2.ryy	2.ryy
.	.	.	16g/L	.	16b\L	.	.	.	.	.	.	.	.	.	.	.	.	.	.
.	.	.	16a/JJ	.	16cc\JJ	.	.	.	.	.	.	.	.	.	.	.	.	.	.
4r	.	.	8b/L	.	8dd\L	.	4r	.	.	4r	.	.	4r	.	4r	.	.	.	.
.	.	.	8cc/	.	8ee\	.	.	.	.	.	.	.	.	.	.	.	.	.	.
4r	.	.	8b/	.	8dd\	.	4r	.	.	4r	.	.	4r	.	4r	.	.	.	.
.	.	.	8a/J	.	8cc\J	.	.	.	.	.	.	.	.	.	.	.	.	.	.
!	!	!	!	!	!LO:LB:g=original	!	!	!	!	!	!	!	!	!	!	!	!	!	!
=74	=74	=74	=74	=74	=74	=74	=74	=74	=74	=74	=74	=74	=74	=74	=74	=74	=74	=74	=74
*tremolo	*	*	*	*	*	*	*	*	*	*	*	*	*	*	*	*	*	*	*
!LO:TX:a:i:t=Solo:rj	!	!LO:DY:a:rj	!	!LO:DY:a	!	!LO:DY:rj	!	!	!	!	!	!	!LO:TX:a:i:t=Solo	!	!LO:TX:a:i:t=Solo	!	!	!	!
8G\L	5 3	p	4g/	p	4b\	p	0.r	.	.	0.r	.	.	4g\	Glo-	4b\	Glo-	.	2.ryy	2.ryy
8G\	.	.	.	.	.	.	.	.	.	.	.	.	.	.	.	.	.	.	.
8G\	.	.	4g/	.	4b\	.	.	.	.	.	.	.	4g\	-ri-	4b\	-ri-	.	.	.
8G\	.	.	.	.	.	.	.	.	.	.	.	.	.	.	.	.	.	.	.
8G\	4 2	.	4a/	.	4cc\	.	.	.	.	.	.	.	4a\	-a	4cc\	-a	.	.	.
8G\J	.	.	.	.	.	.	.	.	.	.	.	.	.	.	.	.	.	.	.
=75	=75	=75	=75	=75	=75	=75	=75	=75	=75	=75	=75	=75	=75	=75	=75	=75	=75	=75	=75
!	!	!	!	!	!	!	!	!	!	!	!	!	!	!	!	!LO:MO:mod=Pa-	!	!	!
8G\L	5_ 3_	.	4.b\	.	4.dd\	.	.	.	.	.	.	.	4.b\	Pa-	4.dd\	pa-	.	2.ryy	2.ryy
8G\	.	.	.	.	.	.	.	.	.	.	.	.	.	.	.	.	.	.	.
8G\	.	.	.	.	.	.	.	.	.	.	.	.	.	.	.	.	.	.	.
8G\	.	.	16a\LL	.	16cc\LL	.	.	.	.	.	.	.	16a\LL	.	16cc\LL	.	.	.	.
.	.	.	16b\JJ	.	16dd\JJ	.	.	.	.	.	.	.	16b\JJ	.	16dd\JJ	.	.	.	.
8G\	4 2	.	8cc\L	.	8ee\L	.	.	.	.	.	.	.	8cc\	-tri	8ee\	-tri	.	.	.
8G\J	.	.	8a\J	.	8cc\J	.	.	.	.	.	.	.	8a\	et	8cc\	et	.	.	.
!LO:LB:g=original	!	!	!	!	!	!	!	!	!	!	!	!	!	!	!	!	!	!	!
=76	=76	=76	=76	=76	=76	=76	=76	=76	=76	=76	=76	=76	=76	=76	=76	=76	=76	=76	=76
8G\L	5 3	.	8a/L	.	8cc\L	.	.	.	.	.	.	.	8a\	fi-	8cc\	fi-	.	2.ryy	2.ryy
8G\	.	.	8g/J	.	8b\J	.	.	.	.	.	.	.	8g\	-li-	8b\	-li-	.	.	.
8G\	.	.	4g/	.	4b\	.	.	.	.	.	.	.	4g\	-o	4b\	-o	.	.	.
8G\	.	.	.	.	.	.	.	.	.	.	.	.	.	.	.	.	.	.	.
.	.	.	16qqcc/	.	.	.	.	.	.	.	.	.	.	.	.	.	.	.	.
8G\	.	.	8b/L	.	8dd\L	.	.	.	.	.	.	.	8b\	et	8dd\	et	.	.	.
8G\J	.	.	16a/L	.	16cc\L	.	.	.	.	.	.	.	16a\LL	spi-	16cc\LL	Spi-	.	.	.
.	.	.	16g/JJ	.	16b\JJ	.	.	.	.	.	.	.	16g\JJ	.	16b\JJ	.	.	.	.
*Xtremolo	*	*	*	*	*	*	*	*	*	*	*	*	*	*	*	*	*	*	*
!	!	!	!	!	!	!	!	!	!	!	!	!	!LO:LB:g=original	!	!LO:LB:g=original	!	!	!	!
=77	=77	=77	=77	=77	=77	=77	=77	=77	=77	=77	=77	=77	=77	=77	=77	=77	=77	=77	=77
8D\L	.	.	4.f#/	.	4.a\	.	.	.	.	.	.	.	4.f#\	-ri-	4.a\	-ri-	.	2.ryy	2.ryy
8D\	.	.	.	.	.	.	.	.	.	.	.	.	.	.	.	.	.	.	.
8D\	.	.	.	.	.	.	.	.	.	.	.	.	.	.	.	.	.	.	.
8D\	.	.	16g/LL	.	16b\LL	.	.	.	.	.	.	.	16g\LL	.	16b\LL	.	.	.	.
.	.	.	16a/JJ	.	16cc\JJ	.	.	.	.	.	.	.	16a\JJ	.	16cc\JJ	.	.	.	.
8G\	.	.	8g/L	.	8b\L	.	.	.	.	.	.	.	8g\	-tu-	8b\	-tu-	.	.	.
8G\J	.	.	8b/J	.	8dd\J	.	.	.	.	.	.	.	8b\	-i	8dd\	-i	.	.	.
=78	=78	=78	=78	=78	=78	=78	=78	=78	=78	=78	=78	=78	=78	=78	=78	=78	=78	=78	=78
!LO:TX:t=P:problem=mixed beam	!	!	!	!	!	!	!	!	!	!	!	!	!	!LO:SIC:v:l:s=San-	!	!	!	!	!
8c\L	6	.	16a/LL	.	16cc\LL	.	1.r	.	.	1.r	.	.	4a\	Sanc-	4cc\	Sanc-	.	2.ryy	2.ryy
.	.	.	16cc/	.	16ee\	.	.	.	.	.	.	.	.	.	.	.	.	.	.
8c\	.	.	16b/	.	16dd\	.	.	.	.	.	.	.	.	.	.	.	.	.	.
.	.	.	16a/JJ	.	16cc\JJ	.	.	.	.	.	.	.	.	.	.	.	.	.	.
8d\	4	.	4g/	.	4b\	.	.	.	.	.	.	.	4g\	.	4b\	.	.	.	.
8d\	.	.	.	.	.	.	.	.	.	.	.	.	.	.	.	.	.	.	.
8D/	3	.	4f#/	.	4a\	.	.	.	.	.	.	.	4f#\	.	4a\	.	.	.	.
8D/J	.	.	.	.	.	.	.	.	.	.	.	.	.	.	.	.	.	.	.
!	!	!	!LO:LB:g=original	!	!	!	!	!	!	!	!	!	!	!	!	!	!	!	!
=79	=79	=79	=79	=79	=79	=79	=79	=79	=79	=79	=79	=79	=79	=79	=79	=79	=79	=79	=79
4G\	.	.	8g/L	.	8b\L	.	.	.	.	.	.	.	4g\	-to	4b\	-cto	.	2.ryy	2.ryy
!	!	!	!	!LO:HP:t=Cres	!	!	!	!	!	!	!	!	!	!	!	!	!	!	!
.	.	.	16f#/L	<	16a\L	.	.	.	.	.	.	.	.	.	.	.	.	.	.
.	.	.	16g/JJ	.	16b\JJ	.	.	.	.	.	.	.	.	.	.	.	.	.	.
4r	.	.	8a/L|	.	8cc\L|	.	.	.	.	.	.	.	4r	.	4r	.	.	.	.
.	.	.	8b/|	.	8dd\|	.	.	.	.	.	.	.	.	.	.	.	.	.	.
4r	.	.	8cc/|	.	8ee\|	.	.	.	.	.	.	.	4r	.	4r	.	.	.	.
.	.	.	8a/J|	.	8ff#\J|	.	.	.	.	.	.	.	.	.	.	.	.	.	.
!	!	!	!	!	!LO:LB:g=original	!	!	!	!	!	!	!	!	!	!	!	!	!	!
=80	=80	=80	=80	=80	=80	=80	=80	=80	=80	=80	=80	=80	=80	=80	=80	=80	=80	=80	=80
*tremolo	*	*	*	*	*	*	*	*	*	*	*	*	*	*	*	*	*	*	*
!LO:TX:a:i:t=Tutti	!	!	!	!LO:DY:a	!	!LO:DY:t=for.	!	!	!	!	!	!	!LO:TX:a:i:t=Tutti	!	!	!	!	!	!
8G\L	.	.	16B/LL	f	8gg\L	f	8G\	Si-	.	8d\	Si-	.	8g\	Si-	8b\	Si-	.	2.ryy	2.ryy
.	.	.	16d/	.	.	.	.	.	.	.	.	.	.	.	.	.	.	.	.
8G\	.	.	16B/	.	16dd\L	.	8G\	-cut	.	8d\	-cut	.	8g\	-cut	8b\	-cut	.	.	.
.	.	.	16d/JJ	.	16b\JJ	.	.	.	.	.	.	.	.	.	.	.	.	.	.
!	!	!	!	!	!	!	!LO:LB:g=original	!	!	!	!	!	!	!	!	!	!	!	!
8G\	.	.	16B/LL	.	8g/L	.	4G\	e-	.	4d\	e-	.	4g\	e-	4b\	e-	.	.	.
.	.	.	16d/	.	.	.	.	.	.	.	.	.	.	.	.	.	.	.	.
8G\	.	.	16B/	.	8d/	.	.	.	.	.	.	.	.	.	.	.	.	.	.
.	.	.	16d/JJ	.	.	.	.	.	.	.	.	.	.	.	.	.	.	.	.
8G\	.	.	16B/LL	.	8g/	.	4G\	-rat	.	4d\	-rat	.	4g\	-rat	4b\	-rat	.	.	.
.	.	.	16d/	.	.	.	.	.	.	.	.	.	.	.	.	.	.	.	.
8G\J	.	.	16B/	.	8b/J	.	.	.	.	.	.	.	.	.	.	.	.	.	.
.	.	.	16d/JJ	.	.	.	.	.	.	.	.	.	.	.	.	.	.	.	.
=81	=81	=81	=81	=81	=81	=81	=81	=81	=81	=81	=81	=81	=81	=81	=81	=81	=81	=81	=81
*	*	*	*tremolo	*	*	*	*	*	*	*	*	*	*	*	*	*	*	*	*
8F#\L	6 5	.	16A/LL	.	(8.dd\L	.	8F#\	in	.	8d\	in	.	8a\	in	8cc\	in	.	2.ryy	2.ryy
.	.	.	16d/	.	.	.	.	.	.	.	.	.	.	.	.	.	.	.	.
8F#\	.	.	16A/	.	.	.	8F#\	prin-	.	8d\	prin-	.	8a\	prin-	8cc\	prin-	.	.	.
.	.	.	16d/	.	16cc\Jk)	.	.	.	.	.	.	.	.	.	.	.	.	.	.
8F#\	.	.	16A/	.	4cc\|	.	4F#\	-ci-	.	4d\	-ci-	.	4a\	-ci-	4cc\	-ci-	.	.	.
.	.	.	16d/	.	.	.	.	.	.	.	.	.	.	.	.	.	.	.	.
8F#\	.	.	16A/	.	.	.	.	.	.	.	.	.	.	.	.	.	.	.	.
.	.	.	16d/	.	.	.	.	.	.	.	.	.	.	.	.	.	.	.	.
!	!	!	!	!	!	!	!	!	!	!	!	!	!	!	!LO:LB:g=original	!	!	!	!
8F#\	.	.	16A/	.	8r	.	8F#\	-pi-	.	8d\	-pi-	.	8a\	-pi-	8cc\	-pi-	.	.	.
.	.	.	16d/	.	.	.	.	.	.	.	.	.	.	.	.	.	.	.	.
8F#\J	.	.	16A/	.	8a/	.	8F#\	-o	.	8d\	-o	.	8a\	-o	8cc\	-o	.	.	.
.	.	.	16d/JJ	.	.	.	.	.	.	.	.	.	.	.	.	.	.	.	.
!	!	!	!	!	!	!	!	!	!	!LO:LB:g=original	!	!	!LO:LB:g=original	!	!	!	!	!	!
=82	=82	=82	=82	=82	=82	=82	=82	=82	=82	=82	=82	=82	=82	=82	=82	=82	=82	=82	=82
8G\L	.	.	16B/LL	.	8b\L	.	4G\	et	.	4d\	et	.	4g\	et	4b\	et	.	2.ryy	2.ryy
.	.	.	16d/	.	.	.	.	.	.	.	.	.	.	.	.	.	.	.	.
8G\	.	.	16B/	.	16dd\L	.	.	.	.	.	.	.	.	.	.	.	.	.	.
.	.	.	16d/	.	16b\JJ	.	.	.	.	.	.	.	.	.	.	.	.	.	.
8G\	.	.	16B/	.	8g/L	.	4G\	nunc	.	4d\	nunc	.	4g\	nunc	4b\	nunc	.	.	.
.	.	.	16d/	.	.	.	.	.	.	.	.	.	.	.	.	.	.	.	.
8G\	.	.	16B/	.	8d/	.	.	.	.	.	.	.	.	.	.	.	.	.	.
.	.	.	16d/	.	.	.	.	.	.	.	.	.	.	.	.	.	.	.	.
8G\	.	.	16B/	.	8g/	.	4G\	et	.	4d\	et	.	4g\	et	4b\	et	.	.	.
.	.	.	16d/	.	.	.	.	.	.	.	.	.	.	.	.	.	.	.	.
8G\J	.	.	16B/	.	8b/J	.	.	.	.	.	.	.	.	.	.	.	.	.	.
.	.	.	16d/JJ	.	.	.	.	.	.	.	.	.	.	.	.	.	.	.	.
=83	=83	=83	=83	=83	=83	=83	=83	=83	=83	=83	=83	=83	=83	=83	=83	=83	=83	=83	=83
8F#\L	6 5	.	16A/LL	.	(8.dd\L	.	4F#\	Sem-	.	4d\	Sem-	.	4a\	Sem-	4cc\	Sem-	.	2.ryy	2.ryy
.	.	.	16d/	.	.	.	.	.	.	.	.	.	.	.	.	.	.	.	.
8F#\	.	.	16A/	.	.	.	.	.	.	.	.	.	.	.	.	.	.	.	.
.	.	.	16d/	.	16cc\Jk)	.	.	.	.	.	.	.	.	.	.	.	.	.	.
8F#\	.	.	16A/	.	4cc\|	.	4F#\	-per	.	4d\	-per	.	4a\	-per	4cc\	-per	.	.	.
.	.	.	16d/	.	.	.	.	.	.	.	.	.	.	.	.	.	.	.	.
8F#\	.	.	16A/	.	.	.	.	.	.	.	.	.	.	.	.	.	.	.	.
.	.	.	16d/	.	.	.	.	.	.	.	.	.	.	.	.	.	.	.	.
8F#\	.	.	16A/	.	8r	.	8F#\	et	.	8d\	et	.	8a\	et	8cc\	et	.	.	.
.	.	.	16d/	.	.	.	.	.	.	.	.	.	.	.	.	.	.	.	.
8F#\J	.	.	16A/	.	8a/	.	8F#\	in	.	8d\	in	.	8a\	in	8cc\	in	.	.	.
.	.	.	16d/JJ	.	.	.	.	.	.	.	.	.	.	.	.	.	.	.	.
=84	=84	=84	=84	=84	=84	=84	=84	=84	=84	=84	=84	=84	=84	=84	=84	=84	=84	=84	=84
8G\L	.	.	16B/LL	.	8.b\L	.	4.G\	Se-	.	4.d\	Se-	.	4.g\	Sae-	4.b\	Se-	.	2.ryy	2.ryy
.	.	.	16d/	.	.	.	.	.	.	.	.	.	.	.	.	.	.	.	.
8G\	.	.	16B/	.	.	.	.	.	.	.	.	.	.	.	.	.	.	.	.
.	.	.	16d/	.	32dd\LL	.	.	.	.	.	.	.	.	.	.	.	.	.	.
.	.	.	.	.	32cc\JJJ	.	.	.	.	.	.	.	.	.	.	.	.	.	.
8G\	.	.	16B/	.	8b\L	.	.	.	.	.	.	.	.	.	.	.	.	.	.
.	.	.	16d/	.	.	.	.	.	.	.	.	.	.	.	.	.	.	.	.
8G\	.	.	16B/	.	8gg\	.	8G\	-cu-	.	8d\	-cu-	.	8b\	-cu-	8gg\	-cu-	.	.	.
.	.	.	16d/	.	.	.	.	.	.	.	.	.	.	.	.	.	.	.	.
8G\	.	.	16B/	.	8b\	.	4G\	-la	.	4d\	-la	.	4b\	-la	4gg\	-la	.	.	.
.	.	.	16d/	.	.	.	.	.	.	.	.	.	.	.	.	.	.	.	.
8G\J	.	.	16B/	.	8gg\J	.	.	.	.	.	.	.	.	.	.	.	.	.	.
.	.	.	16d/JJ	.	.	.	.	.	.	.	.	.	.	.	.	.	.	.	.
!	!	!	!	!	!LO:LB:g=original	!	!LO:LB:g=original	!	!	!	!	!	!	!	!	!	!	!	!
=85	=85	=85	=85	=85	=85	=85	=85	=85	=85	=85	=85	=85	=85	=85	=85	=85	=85	=85	=85
8E\L	.	.	16B/LL	.	8.b\L	.	2E\	Se-	.	2e\	Se-	.	2b\	Se-	2gg\	Sae-	.	2.ryy	2.ryy
.	.	.	16g/	.	.	.	.	.	.	.	.	.	.	.	.	.	.	.	.
8E\	.	.	16B/	.	.	.	.	.	.	.	.	.	.	.	.	.	.	.	.
.	.	.	16g/	.	32dd\LL	.	.	.	.	.	.	.	.	.	.	.	.	.	.
.	.	.	.	.	32cc\JJJ	.	.	.	.	.	.	.	.	.	.	.	.	.	.
8E\	.	.	16B/	.	8b\L	.	.	.	.	.	.	.	.	.	.	.	.	.	.
.	.	.	16g/	.	.	.	.	.	.	.	.	.	.	.	.	.	.	.	.
8E\	.	.	16B/	.	8gg\	.	.	.	.	.	.	.	.	.	.	.	.	.	.
.	.	.	16g/	.	.	.	.	.	.	.	.	.	.	.	.	.	.	.	.
8E\	.	.	16B/	.	8b\	.	4E\	-cu-	.	4e\	-cu-	.	4b\	-cu-	4gg\	-cu-	.	.	.
.	.	.	16g/	.	.	.	.	.	.	.	.	.	.	.	.	.	.	.	.
8E\J	.	.	16B/	.	8gg\J	.	.	.	.	.	.	.	.	.	.	.	.	.	.
.	.	.	16g/JJ	.	.	.	.	.	.	.	.	.	.	.	.	.	.	.	.
*Xtremolo	*	*	*Xtremolo	*	*	*	*	*	*	*	*	*	*	*	*	*	*	*	*
!LO:LB:g=original	!	!	!LO:LB:g=original	!	!	!	!	!	!	!	!	!	!	!	!	!	!	!	!
=86	=86	=86	=86	=86	=86	=86	=86	=86	=86	=86	=86	=86	=86	=86	=86	=86	=86	=86	=86
8C/L	6	.	16a/LL	.	8.ee\L	.	8C/	-lo-	.	8e\	-lo-	.	8a\	-la	8aa\	-lo-	.	2.ryy	2.ryy
.	.	.	16cc/	.	.	.	.	.	.	.	.	.	.	.	.	.	.	.	.
8C/	.	.	16b/	.	.	.	8C/	-rum	.	8e\	-rum	.	8a\	Se-	8aa\	-rum	.	.	.
.	.	.	16a/JJ	.	32dd\LL	.	.	.	.	.	.	.	.	.	.	.	.	.	.
.	.	.	.	.	32cc\JJJ	.	.	.	.	.	.	.	.	.	.	.	.	.	.
8D/	4	.	8g/L	.	8b\L	.	2D\	a-	.	2d\	a-	.	4b\	-cu-	4gg\	a-	.	.	.
8D/	.	.	8b/	.	8gg\	.	.	.	.	.	.	.	.	.	.	.	.	.	.
!	!	!	!	!	!	!	!	!	!	!	!	!	!	!	!LO:LB:g=original	!	!	!	!
8DD/	3	.	8f#/	.	8a\	.	.	.	.	.	.	.	4a\	-lo-	4ff#\	.	.	.	.
8DD/J	.	.	8a/J	.	8ff#\J	.	.	.	.	.	.	.	.	.	.	.	.	.	.
!	!	!	!	!	!	!	!	!	!	!LO:LB:g=original	!	!	!LO:LB:g=original	!	!	!	!	!	!
=87	=87	=87	=87	=87	=87	=87	=87	=87	=87	=87	=87	=87	=87	=87	=87	=87	=87	=87	=87
4GG/	.	.	8b\L	.	8gg\L	.	4G\	-men	.	4d\	-men	.	4b\	-rum	4gg\	-men	.	2.ryy	2.ryy
.	.	.	16dd\L	.	16bb\L	.	.	.	.	.	.	.	.	.	.	.	.	.	.
.	.	.	16b\JJ	.	16gg\JJ	.	.	.	.	.	.	.	.	.	.	.	.	.	.
4C/	6 5	.	8a\L	.	8b\L	.	4c\	a-	.	4e\	a-	.	2a\	a-	4gg\	a-	.	.	.
.	.	.	8gg\	.	8gg\	.	.	.	.	.	.	.	.	.	.	.	.	.	.
4D/	.	.	8a\	.	8a\	.	4d\	.	.	4d\	.	.	.	.	4ff#\	.	.	.	.
.	.	.	8ff#\J	.	8ff#\J	.	.	.	.	.	.	.	.	.	.	.	.	.	.
=88	=88	=88	=88	=88	=88	=88	=88	=88	=88	=88	=88	=88	=88	=88	=88	=88	=88	=88	=88
4GG/	.	.	4gg 4b 4d/	.	4gg 4b 4d/	.	4G\	-men	.	4d\	-men	.	4b\	-men	4gg\	-men.	.	2.ryy	2.ryy
4r	.	.	2r	.	4r	.	4r	.	.	4r	.	.	4r	.	4r	.	.	.	.
4r	.	.	.	.	4r	.	4r	.	.	4r	.	.	4r	.	4r	.	.	.	.
==	==	==	==	==	==	==	==	==	==	==	==	==	==	==	==	==	==	==	==
*-	*-	*-	*-	*-	*-	*-	*-	*-	*-	*-	*-	*-	*-	*-	*-	*-	*-	*-	*-
!!!system-decoration: [(g1)][(g2)][(g3)]<s9>
!!!RDF**kern: | = vertical stroke
!!!RDF**dynam: p = "p."
!!!RDF**dynam: f = "f."
!!!filter-modern: sic -sq | tie -s | humtr -p | autostem -r | shed -e "s/LO:DY:t=/LO:dy:t=/L" | shed -k -e "s/([^a-gA-Gn#X-])[<>]/$1/g" | shed -e "s/TX(.*):t=P:/tx$1:t=P:/LG" | shed -e "s/^(\d+[\/\\]right)/$1yy/I; s/^(\d+[\/\\]left)/$1yy/I" |modori -m
!!!ENC: Berenika Jozajtis
!!!END: 2021-11-29
!!!ENC: Andrzej Kubiczek
!!!END: 2021-12-12
!!!ENC-modern: Leszek Kubiak
!!!END-modern: 2022-07-28
!!!YEC: Copyright 2022 Narodowy Instytut Fryderyka Chopina (https://polishscores.org)
!!!YEM: License CC-BY-4.0 (https://creativecommons.org/licenses/by/4.0)
